; generated by PrusaSlicer 2.2.0 on 2020-05-30 at 17:29:10 UTC

; 

; external perimeters extrusion width = 0.45mm
; perimeters extrusion width = 0.45mm
; infill extrusion width = 0.45mm
; solid infill extrusion width = 0.45mm
; top infill extrusion width = 0.40mm
; first layer extrusion width = 0.42mm

M73 P0 R90
M73 Q0 S90
M201 X1000 Y1000 Z200 E5000 ; sets maximum accelerations, mm/sec^2
M203 X200 Y200 Z12 E120 ; sets maximum feedrates, mm/sec
M204 P1250 R1250 T1250 ; sets acceleration (P, T) and retract acceleration (R), mm/sec^2
M205 X8.00 Y8.00 Z0.40 E4.50 ; sets the jerk limits, mm/sec
M205 S0 T0 ; sets the minimum extruding and travel feed rate, mm/sec
M107
M862.3 P "MK3S" ; printer model check
M862.1 P0.4 ; nozzle diameter check
M115 U3.9.0 ; tell printer latest fw version
G90 ; use absolute coordinates
M83 ; extruder relative mode
M104 S215 ; set extruder temp
M140 S60 ; set bed temp
M190 S60 ; wait for bed temp
M109 S215 ; wait for extruder temp
G28 W ; home all without mesh bed level
G80 ; mesh bed leveling
G1 Y-3.0 F1000.0 ; go outside print area
G92 E0.0
G1 X60.0 E9.0 F1000.0 ; intro line
M73 Q0 S90
M73 P0 R89
G1 X100.0 E12.5 F1000.0 ; intro line
G92 E0.0
M221 S95
G21 ; set units to millimeters
G90 ; use absolute coordinates
M83 ; use relative distances for extrusion
M900 K0.06 ; Filament gcode LA 1.5
M900 K30 ; Filament gcode LA 1.0
;BEFORE_LAYER_CHANGE
G92 E0.0
;0.2


G1 E-0.80000 F2100.00000
G1 Z0.600 F10800.000
;AFTER_LAYER_CHANGE
;0.2
G1 X86.279 Y77.235
G1 Z0.200
G1 E0.80000 F2100.00000
M204 S1000
G1 F1200.000
G1 X86.987 Y77.123 E0.02249
G1 X163.004 Y77.123 E2.38344
G1 X163.899 Y77.299 E0.02860
G1 X164.662 Y77.800 E0.02860
G1 X165.179 Y78.551 E0.02860
G1 X165.376 Y79.442 E0.02860
G1 X165.377 Y130.546 E1.60233
G1 X165.300 Y131.099 E0.01752
G1 X165.099 Y131.616 E0.01740
G1 X164.783 Y132.072 E0.01740
G1 X164.367 Y132.445 E0.01752
G1 X163.721 Y132.765 E0.02260
G1 X163.013 Y132.877 E0.02249
G1 X86.981 Y132.877 E2.38392
G1 X86.423 Y132.806 E0.01763
G1 X85.897 Y132.606 E0.01763
G1 X85.431 Y132.285 E0.01775
G1 X85.055 Y131.867 E0.01763
G1 X84.736 Y131.225 E0.02249
G1 X84.623 Y130.520 E0.02237
G1 X84.623 Y79.473 E1.60054
G1 X84.696 Y78.916 E0.01763
G1 X84.896 Y78.394 E0.01752
G1 X85.215 Y77.931 E0.01763
G1 X85.633 Y77.555 E0.01763
G1 X86.225 Y77.262 E0.02072
G1 F8640.000
G1 X86.987 Y77.123 E-0.17886
G1 X89.504 Y77.123 E-0.58114
G1 E-0.04000 F2100.00000
G1 Z0.800 F10800.000
G1 X112.112 Y94.377
G1 Z0.200
G1 E0.80000 F2100.00000
G1 F1200.000
G1 X124.988 Y86.943 E0.46615
G1 X137.863 Y94.377 E0.46615
G1 X137.863 Y109.244 E0.46615
G1 X124.988 Y116.678 E0.46615
G1 X112.112 Y109.244 E0.46615
G1 X112.112 Y94.437 E0.46427
G1 X112.489 Y94.594 F10800.000
G1 F1200.000
G1 X124.988 Y87.379 E0.45250
G1 X137.486 Y94.594 E0.45250
G1 X137.486 Y109.026 E0.45250
G1 X124.988 Y116.242 E0.45250
G1 X112.489 Y109.026 E0.45250
G1 X112.489 Y94.654 E0.45062
G1 X112.289 Y94.248 F10800.000
G1 F8640.000
G1 X115.334 Y92.999 E-0.76000
G1 E-0.04000 F2100.00000
G1 Z0.800 F10800.000
G1 X146.750 Y123.347
G1 Z0.200
G1 E0.80000 F2100.00000
G1 F1200.000
G1 X146.803 Y122.912 E0.01374
G1 X147.084 Y122.170 E0.02489
G1 X147.535 Y121.516 E0.02489
G1 X148.129 Y120.990 E0.02489
G1 X148.832 Y120.621 E0.02489
G1 X149.603 Y120.431 E0.02489
G1 X150.397 Y120.431 E0.02489
G1 X151.168 Y120.621 E0.02489
G1 X151.871 Y120.990 E0.02489
G1 X152.465 Y121.516 E0.02489
G1 X152.916 Y122.170 E0.02489
G1 X153.197 Y122.912 E0.02489
G1 X153.293 Y123.700 E0.02489
G1 X153.197 Y124.488 E0.02489
G1 X152.916 Y125.230 E0.02489
G1 X152.465 Y125.884 E0.02489
G1 X151.871 Y126.410 E0.02489
G1 X151.168 Y126.779 E0.02489
G1 X150.397 Y126.969 E0.02489
G1 X149.603 Y126.969 E0.02489
G1 X148.832 Y126.779 E0.02489
G1 X148.129 Y126.410 E0.02489
G1 X147.570 Y125.914 E0.02345
G1 X147.086 Y125.234 E0.02616
G1 X146.803 Y124.488 E0.02502
G1 X146.750 Y124.053 E0.01374
G1 X146.697 Y124.488 E0.01374
G1 X146.416 Y125.230 E0.02489
G1 X145.965 Y125.884 E0.02489
G1 X145.371 Y126.410 E0.02489
G1 X144.668 Y126.779 E0.02489
G1 X143.897 Y126.969 E0.02489
G1 X143.103 Y126.969 E0.02489
G1 X142.332 Y126.779 E0.02489
G1 X141.629 Y126.410 E0.02489
G1 X141.035 Y125.884 E0.02489
G1 X140.584 Y125.230 E0.02489
G1 X140.303 Y124.488 E0.02489
G1 X140.207 Y123.700 E0.02489
G1 X140.303 Y122.912 E0.02489
G1 X140.584 Y122.170 E0.02489
G1 X141.035 Y121.516 E0.02489
G1 X141.629 Y120.990 E0.02489
G1 X142.332 Y120.621 E0.02489
G1 X143.103 Y120.431 E0.02489
G1 X143.897 Y120.431 E0.02489
G1 X144.668 Y120.621 E0.02489
G1 X145.371 Y120.990 E0.02489
G1 X145.965 Y121.516 E0.02489
G1 X146.416 Y122.170 E0.02489
G1 X146.697 Y122.912 E0.02489
G1 X146.743 Y123.287 E0.01186
G1 X146.328 Y123.003 F10800.000
G1 F1200.000
G1 X146.413 Y123.700 E0.02202
G1 X146.328 Y124.397 E0.02202
G1 X146.079 Y125.054 E0.02202
G1 X145.680 Y125.632 E0.02202
G1 X145.155 Y126.097 E0.02202
G1 X144.533 Y126.424 E0.02202
G1 X143.851 Y126.592 E0.02202
G1 X143.149 Y126.592 E0.02202
G1 X142.467 Y126.424 E0.02202
G1 X141.845 Y126.097 E0.02202
G1 X141.320 Y125.632 E0.02202
G1 X140.921 Y125.054 E0.02202
G1 X140.672 Y124.397 E0.02202
G1 X140.587 Y123.700 E0.02202
G1 X140.672 Y123.003 E0.02202
G1 X140.921 Y122.346 E0.02202
G1 X141.320 Y121.768 E0.02202
G1 X141.845 Y121.303 E0.02202
G1 X142.467 Y120.976 E0.02202
G1 X143.149 Y120.808 E0.02202
G1 X143.851 Y120.808 E0.02202
G1 X144.533 Y120.976 E0.02202
G1 X145.155 Y121.303 E0.02202
G1 X145.680 Y121.768 E0.02202
G1 X146.079 Y122.346 E0.02202
G1 X146.307 Y122.947 E0.02014
G1 X146.713 Y123.114 F10800.000
G1 X147.172 Y123.003
G1 F1200.000
G1 X147.421 Y122.346 E0.02202
G1 X147.820 Y121.768 E0.02202
G1 X148.345 Y121.303 E0.02202
G1 X148.967 Y120.976 E0.02202
G1 X149.649 Y120.808 E0.02202
G1 X150.351 Y120.808 E0.02202
G1 X151.033 Y120.976 E0.02202
G1 X151.655 Y121.303 E0.02202
G1 X152.180 Y121.768 E0.02202
G1 X152.579 Y122.346 E0.02202
G1 X152.828 Y123.003 E0.02202
G1 X152.913 Y123.700 E0.02202
G1 X152.828 Y124.397 E0.02202
G1 X152.579 Y125.054 E0.02202
G1 X152.180 Y125.632 E0.02202
G1 X151.655 Y126.097 E0.02202
G1 X151.033 Y126.424 E0.02202
G1 X150.351 Y126.592 E0.02202
G1 X149.649 Y126.592 E0.02202
G1 X148.967 Y126.424 E0.02202
G1 X148.345 Y126.097 E0.02202
G1 X147.852 Y125.660 E0.02067
G1 X147.421 Y125.055 E0.02328
G1 X147.172 Y124.397 E0.02207
G1 X147.087 Y123.700 E0.02202
G1 X147.164 Y123.062 E0.02014
G1 X146.883 Y122.726 F10800.000
G1 F8640.000
G1 X147.421 Y122.346 E-0.17563
G1 X147.820 Y121.768 E-0.16215
G1 X148.345 Y121.303 E-0.16215
G1 X148.967 Y120.976 E-0.16215
G1 X149.379 Y120.875 E-0.09791
G1 E-0.04000 F2100.00000
G1 Z0.800 F10800.000
G1 X114.993 Y123.200
G1 Z0.200
G1 E0.80000 F2100.00000
G1 F1200.000
G1 X114.897 Y123.988 E0.02489
G1 X114.616 Y124.730 E0.02489
G1 X114.165 Y125.384 E0.02489
G1 X113.571 Y125.910 E0.02489
G1 X112.868 Y126.279 E0.02489
G1 X112.097 Y126.469 E0.02489
G1 X111.303 Y126.469 E0.02489
G1 X110.532 Y126.279 E0.02489
G1 X109.829 Y125.910 E0.02489
G1 X109.235 Y125.384 E0.02489
G1 X108.782 Y124.727 E0.02502
G1 X108.497 Y123.943 E0.02616
G1 X108.407 Y123.200 E0.02345
G1 X108.503 Y122.412 E0.02489
G1 X108.784 Y121.670 E0.02489
G1 X109.235 Y121.016 E0.02489
G1 X109.829 Y120.490 E0.02489
G1 X110.532 Y120.121 E0.02489
G1 X111.303 Y119.931 E0.02489
G1 X112.097 Y119.931 E0.02489
G1 X112.474 Y120.024 E0.01217
G1 X112.868 Y120.121 E0.01271
G1 X113.571 Y120.490 E0.02489
G1 X114.165 Y121.016 E0.02489
G1 X114.616 Y121.670 E0.02489
G1 X114.897 Y122.412 E0.02489
G1 X114.986 Y123.140 E0.02301
G1 X114.611 Y123.186 F10800.000
G1 F1200.000
G1 X114.528 Y123.897 E0.02245
G1 X114.279 Y124.554 E0.02202
G1 X113.880 Y125.132 E0.02202
G1 X113.355 Y125.597 E0.02202
G1 X112.733 Y125.924 E0.02202
G1 X112.051 Y126.092 E0.02202
G1 X111.349 Y126.092 E0.02202
G1 X110.667 Y125.924 E0.02202
G1 X110.045 Y125.597 E0.02202
G1 X109.520 Y125.132 E0.02202
G1 X109.120 Y124.552 E0.02207
G1 X108.866 Y123.854 E0.02328
G1 X108.787 Y123.200 E0.02067
G1 X108.872 Y122.503 E0.02202
G1 X109.121 Y121.846 E0.02202
G1 X109.520 Y121.268 E0.02202
G1 X110.045 Y120.803 E0.02202
G1 X110.667 Y120.476 E0.02202
G1 X111.349 Y120.308 E0.02202
G1 X112.051 Y120.308 E0.02202
G1 X112.733 Y120.476 E0.02202
G1 X113.355 Y120.803 E0.02202
G1 X113.880 Y121.268 E0.02202
G1 X114.279 Y121.846 E0.02202
G1 X114.528 Y122.503 E0.02202
G1 X114.604 Y123.126 E0.01969
G1 X114.958 Y123.385 F10800.000
G1 F8640.000
G1 X114.528 Y123.897 E-0.17884
G1 X114.279 Y124.554 E-0.16215
G1 X113.880 Y125.132 E-0.16215
G1 X113.355 Y125.597 E-0.16215
G1 X112.992 Y125.788 E-0.09471
G1 E-0.04000 F2100.00000
G1 Z0.800 F10800.000
G1 X105.393 Y123.200
G1 Z0.200
G1 E0.80000 F2100.00000
G1 F1200.000
G1 X105.297 Y123.988 E0.02489
G1 X105.016 Y124.730 E0.02489
G1 X104.565 Y125.384 E0.02489
G1 X103.971 Y125.910 E0.02489
G1 X103.268 Y126.279 E0.02489
G1 X102.497 Y126.469 E0.02489
G1 X101.703 Y126.469 E0.02489
G1 X100.932 Y126.279 E0.02489
G1 X100.229 Y125.910 E0.02489
G1 X99.635 Y125.384 E0.02489
G1 X99.184 Y124.730 E0.02489
G1 X98.903 Y123.988 E0.02489
G1 X98.807 Y123.200 E0.02489
G1 X98.903 Y122.412 E0.02489
G1 X99.184 Y121.670 E0.02489
G1 X99.635 Y121.016 E0.02489
G1 X100.229 Y120.490 E0.02489
G1 X100.932 Y120.121 E0.02489
G1 X101.703 Y119.931 E0.02489
G1 X102.497 Y119.931 E0.02489
G1 X102.874 Y120.024 E0.01217
G1 X103.268 Y120.121 E0.01271
G1 X103.971 Y120.490 E0.02489
G1 X104.565 Y121.016 E0.02489
G1 X105.018 Y121.673 E0.02502
G1 X105.303 Y122.457 E0.02616
G1 X105.386 Y123.140 E0.02157
G1 X105.011 Y123.186 F10800.000
G1 F1200.000
G1 X104.928 Y123.897 E0.02245
G1 X104.679 Y124.554 E0.02202
G1 X104.280 Y125.132 E0.02202
G1 X103.755 Y125.597 E0.02202
G1 X103.133 Y125.924 E0.02202
G1 X102.451 Y126.092 E0.02202
G1 X101.749 Y126.092 E0.02202
G1 X101.067 Y125.924 E0.02202
G1 X100.445 Y125.597 E0.02202
G1 X99.920 Y125.132 E0.02202
G1 X99.521 Y124.554 E0.02202
G1 X99.272 Y123.897 E0.02202
G1 X99.187 Y123.200 E0.02202
G1 X99.272 Y122.503 E0.02202
G1 X99.521 Y121.846 E0.02202
G1 X99.920 Y121.268 E0.02202
G1 X100.445 Y120.803 E0.02202
G1 X101.067 Y120.476 E0.02202
G1 X101.749 Y120.308 E0.02202
G1 X102.451 Y120.308 E0.02202
G1 X103.133 Y120.476 E0.02202
G1 X103.755 Y120.803 E0.02202
G1 X104.280 Y121.268 E0.02202
G1 X104.680 Y121.848 E0.02207
G1 X104.934 Y122.546 E0.02328
G1 X105.004 Y123.126 E0.01834
G1 X105.358 Y123.385 F10800.000
G1 F8640.000
G1 X104.928 Y123.897 E-0.17884
G1 X104.679 Y124.554 E-0.16215
G1 X104.280 Y125.132 E-0.16215
G1 X103.755 Y125.597 E-0.16215
G1 X103.392 Y125.788 E-0.09471
G1 E-0.04000 F2100.00000
G1 Z0.800 F10800.000
G1 X88.187 Y129.313
G1 Z0.200
G1 E0.80000 F2100.00000
G1 F1200.000
G1 X88.187 Y80.687 E1.52463
G1 X161.813 Y80.687 E2.30849
G1 X161.813 Y129.313 E1.52463
G1 X88.247 Y129.313 E2.30661
G1 X87.810 Y129.690 F10800.000
G1 F1200.000
G1 X87.810 Y80.310 E1.54828
G1 X162.190 Y80.310 E2.33213
G1 X162.190 Y129.690 E1.54828
G1 X87.870 Y129.690 E2.33025
M73 Q1 S89
M73 P1 R88
G1 X87.939 Y129.311 F10800.000
G1 F8640.000
G1 X87.866 Y126.399 E-0.76000
G1 E-0.04000 F2100.00000
G1 Z0.800 F10800.000
G1 X89.064 Y129.200
G1 Z0.200
G1 E0.80000 F2100.00000
G1 F1200.000
G1 X88.470 Y128.605 E0.02642
G1 X88.470 Y128.071 E0.01680
G1 X89.429 Y129.030 E0.04264
G1 X89.964 Y129.030 E0.01680
G1 X88.470 Y127.536 E0.06640
G1 X88.470 Y127.002 E0.01680
G1 X90.498 Y129.030 E0.09016
G1 X91.033 Y129.030 E0.01680
G1 X88.470 Y126.467 E0.11392
G1 X88.470 Y125.933 E0.01680
G1 X91.567 Y129.030 E0.13767
G1 X92.102 Y129.030 E0.01680
G1 X88.470 Y125.398 E0.16143
G1 X88.470 Y124.864 E0.01680
G1 X92.636 Y129.030 E0.18519
G1 X93.171 Y129.030 E0.01680
G1 X88.470 Y124.329 E0.20895
G1 X88.470 Y123.794 E0.01680
G1 X93.706 Y129.030 E0.23271
G1 X94.240 Y129.030 E0.01680
G1 X88.470 Y123.260 E0.25647
G1 X88.470 Y122.725 E0.01680
G1 X94.775 Y129.030 E0.28023
G1 X95.309 Y129.030 E0.01680
G1 X88.470 Y122.191 E0.30398
G1 X88.470 Y121.656 E0.01680
G1 X95.844 Y129.030 E0.32774
G1 X96.378 Y129.030 E0.01680
G1 X88.470 Y121.122 E0.35150
G1 X88.470 Y120.587 E0.01680
G1 X96.913 Y129.030 E0.37526
G1 X97.447 Y129.030 E0.01680
G1 X88.470 Y120.053 E0.39902
G1 X88.470 Y119.518 E0.01680
G1 X97.982 Y129.030 E0.42278
G1 X98.516 Y129.030 E0.01680
G1 X88.470 Y118.984 E0.44654
G1 X88.470 Y118.449 E0.01680
G1 X99.051 Y129.030 E0.47029
G1 X99.585 Y129.030 E0.01680
G1 X88.470 Y117.915 E0.49405
G1 X88.470 Y117.380 E0.01680
G1 X100.120 Y129.030 E0.51781
G1 X100.655 Y129.030 E0.01680
G1 X88.470 Y116.845 E0.54157
G1 X88.470 Y116.311 E0.01680
G1 X101.189 Y129.030 E0.56533
G1 X101.724 Y129.030 E0.01680
G1 X88.470 Y115.776 E0.58909
G1 X88.470 Y115.242 E0.01680
G1 X102.428 Y129.200 E0.62039
G1 F8640.000
G1 X100.100 Y126.872 E-0.76000
G1 E-0.04000 F2100.00000
G1 Z0.800 F10800.000
G1 X122.206 Y129.200
G1 Z0.200
G1 E0.80000 F2100.00000
G1 F1200.000
G1 X115.066 Y122.060 E0.31732
G1 X115.174 Y122.344 E0.00952
G1 X115.223 Y122.752 E0.01292
G1 X121.501 Y129.030 E0.27904
G1 X120.967 Y129.030 E0.01680
G1 X115.262 Y123.326 E0.25355
G1 X115.205 Y123.802 E0.01509
G1 X120.432 Y129.030 E0.23236
G1 X119.898 Y129.030 E0.01680
G1 X115.105 Y124.237 E0.21302
G1 X114.958 Y124.625 E0.01303
G1 X119.363 Y129.030 E0.19580
G1 X118.829 Y129.030 E0.01680
G1 X114.784 Y124.985 E0.17980
G1 X114.565 Y125.301 E0.01208
G1 X118.294 Y129.030 E0.16574
G1 X117.760 Y129.030 E0.01680
G1 X114.338 Y125.608 E0.15210
G1 X114.054 Y125.859 E0.01190
G1 X117.225 Y129.030 E0.14094
G1 X116.691 Y129.030 E0.01680
G1 X113.771 Y126.110 E0.12978
G1 X113.429 Y126.303 E0.01233
G1 X116.156 Y129.030 E0.12119
G1 X115.622 Y129.030 E0.01680
G1 X113.079 Y126.487 E0.11302
G1 X112.969 Y126.545 E0.00391
G1 X112.675 Y126.618 E0.00952
G1 X115.087 Y129.030 E0.10722
G1 X114.552 Y129.030 E0.01680
G1 X112.246 Y126.723 E0.10253
G1 X112.131 Y126.752 E0.00371
G1 X111.739 Y126.752 E0.01231
G1 X114.018 Y129.030 E0.10127
G1 X113.483 Y129.030 E0.01680
G1 X111.184 Y126.731 E0.10220
G1 X110.475 Y126.556 E0.02296
G1 X112.949 Y129.030 E0.10997
G1 X112.414 Y129.030 E0.01680
G1 X105.468 Y122.084 E0.30875
G1 X105.580 Y122.391 E0.01028
G1 X105.626 Y122.777 E0.01220
G1 X111.880 Y129.030 E0.27795
G1 X111.345 Y129.030 E0.01680
G1 X105.660 Y123.345 E0.25269
G1 X105.602 Y123.822 E0.01509
G1 X110.811 Y129.030 E0.23150
G1 X110.276 Y129.030 E0.01680
G1 X105.499 Y124.253 E0.21233
G1 X105.352 Y124.641 E0.01303
G1 X109.742 Y129.030 E0.19510
G1 X109.207 Y129.030 E0.01680
G1 X105.175 Y124.998 E0.17923
G1 X104.956 Y125.314 E0.01208
G1 X108.673 Y129.030 E0.16517
G1 X108.138 Y129.030 E0.01680
G1 X104.726 Y125.618 E0.15164
G1 X104.443 Y125.869 E0.01190
G1 X107.603 Y129.030 E0.14048
G1 X107.069 Y129.030 E0.01680
G1 X104.159 Y126.121 E0.12932
G1 X103.815 Y126.311 E0.01236
G1 X106.534 Y129.030 E0.12086
G1 X106.000 Y129.030 E0.01680
G1 X103.465 Y126.495 E0.11268
G1 X103.369 Y126.545 E0.00341
G1 X103.057 Y126.622 E0.01008
G1 X105.465 Y129.030 E0.10703
G1 X104.931 Y129.030 E0.01680
G1 X102.628 Y126.728 E0.10234
G1 X102.531 Y126.752 E0.00314
G1 X102.118 Y126.752 E0.01299
G1 X104.396 Y129.030 E0.10127
G1 X103.862 Y129.030 E0.01680
G1 X101.555 Y126.724 E0.10252
G1 X100.846 Y126.549 E0.02296
G1 X103.327 Y129.030 E0.11029
G1 X102.793 Y129.030 E0.01680
G1 X88.470 Y114.707 E0.63660
G1 X88.470 Y114.173 E0.01680
G1 X98.793 Y124.496 E0.45883
G1 X98.626 Y124.056 E0.01478
G1 X98.590 Y123.758 E0.00943
G1 X88.470 Y113.638 E0.44981
G1 X88.470 Y113.104 E0.01680
G1 X98.527 Y123.161 E0.44701
G1 X98.585 Y122.684 E0.01509
G1 X88.470 Y112.569 E0.44958
G1 X88.470 Y112.035 E0.01680
G1 X98.668 Y122.233 E0.45329
G1 X98.815 Y121.845 E0.01303
G1 X88.470 Y111.500 E0.45982
G1 X88.470 Y110.966 E0.01680
G1 X98.977 Y121.473 E0.46700
G1 X99.195 Y121.156 E0.01208
G1 X88.470 Y110.431 E0.47670
G1 X88.470 Y109.896 E0.01680
G1 X99.413 Y120.840 E0.48641
G1 X99.694 Y120.586 E0.01189
G1 X88.470 Y109.362 E0.49889
G1 X88.470 Y108.827 E0.01680
G1 X99.978 Y120.335 E0.51149
G1 X100.068 Y120.256 E0.00378
G1 X100.307 Y120.130 E0.00850
G1 X88.470 Y108.293 E0.52612
G1 X88.470 Y107.758 E0.01680
G1 X100.658 Y119.946 E0.54170
G1 X100.831 Y119.855 E0.00617
G1 X101.048 Y119.801 E0.00700
G1 X88.470 Y107.224 E0.55904
G1 X88.470 Y106.689 E0.01680
G1 X101.476 Y119.696 E0.57810
G1 X101.669 Y119.648 E0.00623
