; generated by PrusaSlicer 2.2.0 on 2020-05-13 at 20:48:47 UTC

; 

; external perimeters extrusion width = 0.45mm
; perimeters extrusion width = 0.45mm
; infill extrusion width = 0.45mm
; solid infill extrusion width = 0.45mm
; top infill extrusion width = 0.40mm
; first layer extrusion width = 0.42mm

M73 P0 R22
M73 Q0 S22
M201 X1000 Y1000 Z1000 E5000 ; sets maximum accelerations, mm/sec^2
M203 X200 Y200 Z12 E120 ; sets maximum feedrates, mm/sec
M204 P1250 R1250 T1250 ; sets acceleration (P, T) and retract acceleration (R), mm/sec^2
M205 X8.00 Y8.00 Z0.40 E4.50 ; sets the jerk limits, mm/sec
M205 S0 T0 ; sets the minimum extruding and travel feed rate, mm/sec
M107
M862.3 P "MK3S" ; printer model check
M862.1 P0.4 ; nozzle diameter check
M115 U3.8.1 ; tell printer latest fw version
G90 ; use absolute coordinates
M83 ; extruder relative mode
M104 S215 ; set extruder temp
M140 S60 ; set bed temp
M190 S60 ; wait for bed temp
M109 S215 ; wait for extruder temp
G28 W ; home all without mesh bed level
G80 ; mesh bed leveling
G1 Y-3.0 F1000.0 ; go outside print area
G92 E0.0
G1 X60.0 E9.0 F1000.0 ; intro line
M73 Q0 S22
M73 P0 R22
G1 X100.0 E12.5 F1000.0 ; intro line
G92 E0.0
M221 S95
G21 ; set units to millimeters
G90 ; use absolute coordinates
M83 ; use relative distances for extrusion
M900 K30 ; Filament gcode
;BEFORE_LAYER_CHANGE
G92 E0.0
;0.2


G1 E-0.80000 F2100.00000
G1 Z0.600 F10800.000
;AFTER_LAYER_CHANGE
;0.2
G1 X118.991 Y93.117
G1 Z0.200
G1 E0.80000 F2100.00000
M204 S1000
G1 F1200.000
G1 X119.942 Y92.942 E0.03031
G1 X149.970 Y92.913 E0.94152
G1 X150.979 Y93.106 E0.03221
G1 X151.847 Y93.656 E0.03221
G1 X152.453 Y94.485 E0.03221
G1 X152.714 Y95.478 E0.03221
G1 X152.687 Y104.596 E0.28589
G1 X152.481 Y105.290 E0.02269
G1 X152.102 Y105.906 E0.02269
G1 X151.575 Y106.403 E0.02269
G1 X150.934 Y106.746 E0.02282
G1 X149.983 Y106.921 E0.03031
G1 X119.828 Y106.947 E0.94550
G1 X119.042 Y106.793 E0.02511
G1 X118.337 Y106.422 E0.02498
G1 X117.768 Y105.865 E0.02498
G1 X117.380 Y105.164 E0.02511
G1 X117.205 Y104.238 E0.02955
G1 X117.229 Y95.332 E0.27923
G1 X117.424 Y94.619 E0.02320
G1 X117.802 Y93.983 E0.02320
G1 X118.336 Y93.471 E0.02320
G1 X118.938 Y93.146 E0.02144
G1 X119.114 Y93.479 F10800.000
G1 F1200.000
G1 X119.946 Y93.319 E0.02657
G1 X149.970 Y93.290 E0.94136
G1 X150.844 Y93.458 E0.02790
G1 X151.597 Y93.938 E0.02802
G1 X152.119 Y94.659 E0.02790
G1 X152.339 Y95.522 E0.02790
G1 X152.319 Y104.505 E0.28167
G1 X152.143 Y105.122 E0.02012
G1 X151.810 Y105.667 E0.02000
G1 X151.345 Y106.103 E0.02000
G1 X150.777 Y106.402 E0.02012
G1 X149.978 Y106.544 E0.02543
G1 X119.860 Y106.571 E0.94435
G1 X119.174 Y106.440 E0.02190
G1 X118.556 Y106.115 E0.02190
G1 X118.059 Y105.624 E0.02190
G1 X117.724 Y105.007 E0.02201
G1 X117.582 Y104.228 E0.02484
G1 X117.600 Y95.403 E0.27667
G1 X117.767 Y94.776 E0.02036
G1 X118.100 Y94.214 E0.02048
G1 X118.570 Y93.767 E0.02036
G1 X119.061 Y93.507 E0.01741
G1 F8640.000
G1 X119.946 Y93.319 E-0.20893
G1 X122.333 Y93.317 E-0.55107
G1 E-0.04000 F2100.00000
G1 Z0.800 F10800.000
G1 X140.753 Y96.454
G1 Z0.200
G1 E0.80000 F2100.00000
G1 F1200.000
G1 X149.179 Y96.454 E0.26419
G1 X149.179 Y103.380 E0.21715
G1 X140.753 Y103.380 E0.26419
G1 X140.753 Y96.514 E0.21527
G1 X140.376 Y96.077 F10800.000
G1 F1200.000
G1 X149.556 Y96.077 E0.28783
G1 X149.556 Y103.757 E0.24080
G1 X140.376 Y103.757 E0.28783
G1 X140.376 Y96.137 E0.23892
G1 X140.765 Y96.169 F10800.000
G1 F8640.000
G1 X143.667 Y96.116 E-0.76000
G1 E-0.04000 F2100.00000
G1 Z0.800 F10800.000
G1 X149.066 Y97.332
G1 Z0.200
G1 E0.80000 F2100.00000
G1 F1200.000
G1 X148.471 Y96.737 E0.02645
G1 X147.936 Y96.737 E0.01682
G1 X148.896 Y97.697 E0.04269
G1 X148.896 Y98.232 E0.01682
G1 X147.401 Y96.737 E0.06647
G1 X146.866 Y96.737 E0.01682
G1 X148.896 Y98.767 E0.09026
G1 X148.896 Y99.302 E0.01682
G1 X146.332 Y96.737 E0.11404
G1 X145.797 Y96.737 E0.01682
G1 X148.896 Y99.837 E0.13782
G1 X148.896 Y100.371 E0.01682
G1 X145.262 Y96.737 E0.16160
G1 X144.727 Y96.737 E0.01682
G1 X148.896 Y100.906 E0.18539
G1 X148.896 Y101.441 E0.01682
G1 X144.192 Y96.737 E0.20917
G1 X143.658 Y96.737 E0.01682
G1 X148.896 Y101.976 E0.23295
G1 X148.896 Y102.511 E0.01682
G1 X143.123 Y96.737 E0.25673
G1 X142.588 Y96.737 E0.01682
G1 X148.896 Y103.045 E0.28052
G1 X148.896 Y103.098 E0.00164
G1 X148.413 Y103.098 E0.01518
G1 X142.053 Y96.737 E0.28284
G1 X141.518 Y96.737 E0.01682
G1 X147.879 Y103.098 E0.28284
G1 X147.344 Y103.098 E0.01682
G1 X141.036 Y96.790 E0.28051
G1 X141.036 Y97.324 E0.01682
G1 X146.809 Y103.098 E0.25673
G1 X146.274 Y103.098 E0.01682
G1 X141.036 Y97.859 E0.23295
G1 X141.036 Y98.394 E0.01682
G1 X145.739 Y103.098 E0.20916
G1 X145.205 Y103.098 E0.01682
G1 X141.036 Y98.929 E0.18538
G1 X141.036 Y99.464 E0.01682
G1 X144.670 Y103.098 E0.16160
G1 X144.135 Y103.098 E0.01682
G1 X141.036 Y99.998 E0.13782
G1 X141.036 Y100.533 E0.01682
G1 X143.600 Y103.098 E0.11403
G1 X143.065 Y103.098 E0.01682
G1 X141.036 Y101.068 E0.09025
G1 X141.036 Y101.603 E0.01682
G1 X142.531 Y103.098 E0.06647
G1 X141.996 Y103.098 E0.01682
G1 X141.036 Y102.138 E0.04269
G1 X141.036 Y102.672 E0.01682
G1 X141.631 Y103.267 E0.02645
G1 F8640.000
G1 X141.036 Y102.672 E-0.19422
G1 X141.036 Y102.138 E-0.12349
G1 X141.996 Y103.098 E-0.31345
G1 X142.531 Y103.098 E-0.12349
G1 X142.514 Y103.081 E-0.00534
G1 E-0.04000 F2100.00000
G1 Z0.800 F10800.000
G1 X129.172 Y103.267
G1 Z0.200
G1 E0.80000 F2100.00000
G1 F1200.000
G1 X129.172 Y103.409 E0.00445
G1 X120.746 Y103.409 E0.26419
G1 X120.746 Y96.483 E0.21715
G1 X129.172 Y96.483 E0.26419
G1 X129.172 Y103.207 E0.21083
G1 X129.549 Y103.786 F10800.000
G1 F1200.000
G1 X120.369 Y103.786 E0.28783
G1 X120.369 Y96.106 E0.24080
G1 X129.549 Y96.106 E0.28783
G1 X129.549 Y103.726 E0.23892
G1 X129.160 Y103.694 F10800.000
G1 F8640.000
G1 X126.257 Y103.748 E-0.76000
G1 E-0.04000 F2100.00000
G1 Z0.800 F10800.000
G1 X121.624 Y103.296
G1 Z0.200
G1 E0.80000 F2100.00000
G1 F1200.000
G1 X121.029 Y102.701 E0.02645
G1 X121.029 Y102.166 E0.01682
G1 X121.989 Y103.126 E0.04269
G1 X122.523 Y103.126 E0.01682
G1 X121.029 Y101.631 E0.06647
G1 X121.029 Y101.097 E0.01682
G1 X123.058 Y103.126 E0.09025
G1 X123.593 Y103.126 E0.01682
G1 X121.029 Y100.562 E0.11403
G1 X121.029 Y100.027 E0.01682
G1 X124.128 Y103.126 E0.13782
G1 X124.663 Y103.126 E0.01682
G1 X121.029 Y99.492 E0.16160
G1 X121.029 Y98.957 E0.01682
G1 X125.197 Y103.126 E0.18538
G1 X125.732 Y103.126 E0.01682
G1 X121.029 Y98.423 E0.20916
G1 X121.029 Y97.888 E0.01682
G1 X126.267 Y103.126 E0.23295
G1 X126.802 Y103.126 E0.01682
G1 X121.029 Y97.353 E0.25673
G1 X121.029 Y96.818 E0.01682
G1 X127.337 Y103.126 E0.28051
G1 X127.872 Y103.126 E0.01682
G1 X121.511 Y96.766 E0.28284
G1 X122.046 Y96.766 E0.01682
G1 X128.406 Y103.126 E0.28284
G1 X128.889 Y103.126 E0.01518
G1 X128.889 Y103.074 E0.00164
G1 X122.581 Y96.766 E0.28052
G1 X123.116 Y96.766 E0.01682
G1 X128.889 Y102.539 E0.25673
G1 X128.889 Y102.004 E0.01682
G1 X123.650 Y96.766 E0.23295
G1 X124.185 Y96.766 E0.01682
G1 X128.889 Y101.470 E0.20917
G1 X128.889 Y100.935 E0.01682
G1 X124.720 Y96.766 E0.18539
G1 X125.255 Y96.766 E0.01682
G1 X128.889 Y100.400 E0.16160
G1 X128.889 Y99.865 E0.01682
G1 X125.790 Y96.766 E0.13782
G1 X126.325 Y96.766 E0.01682
G1 X128.889 Y99.330 E0.11404
G1 X128.889 Y98.796 E0.01682
G1 X126.859 Y96.766 E0.09026
G1 X127.394 Y96.766 E0.01682
G1 X128.889 Y98.261 E0.06647
G1 X128.889 Y97.726 E0.01682
G1 X127.929 Y96.766 E0.04269
G1 X128.464 Y96.766 E0.01682
G1 X129.059 Y97.361 E0.02645
M106 S255
;BEFORE_LAYER_CHANGE
G92 E0.0
;0.4


G1 F8640.000
G1 X128.464 Y96.766 E-0.19426
G1 X127.929 Y96.766 E-0.12349
G1 X128.889 Y97.726 E-0.31349
G1 X128.889 Y98.261 E-0.12349
G1 X128.873 Y98.245 E-0.00528
G1 E-0.04000 F2100.00000
G1 Z0.800 F10800.000
;AFTER_LAYER_CHANGE
;0.4
M104 S210 ; set temperature
G1 X152.453 Y94.485
G1 Z0.400
G1 E0.80000 F2100.00000
G1 F2073
G1 X152.714 Y95.478 E0.03221
G1 X152.687 Y104.596 E0.28589
G1 X152.481 Y105.290 E0.02269
G1 X152.102 Y105.906 E0.02269
G1 X151.575 Y106.403 E0.02269
G1 X150.934 Y106.746 E0.02282
G1 X149.983 Y106.921 E0.03031
G1 X119.828 Y106.947 E0.94550
G1 X119.042 Y106.793 E0.02511
G1 X118.337 Y106.422 E0.02498
G1 X117.768 Y105.865 E0.02498
G1 X117.380 Y105.164 E0.02511
G1 X117.205 Y104.238 E0.02955
G1 X117.229 Y95.332 E0.27923
G1 X117.424 Y94.619 E0.02320
G1 X117.802 Y93.983 E0.02320
G1 X118.336 Y93.471 E0.02320
G1 X118.991 Y93.117 E0.02333
G1 X119.942 Y92.942 E0.03031
G1 X149.970 Y92.913 E0.94152
G1 X150.979 Y93.106 E0.03221
G1 X151.847 Y93.656 E0.03221
G1 X152.418 Y94.436 E0.03032
G1 X152.115 Y94.655 F10800.000
G1 F2073
G1 X152.339 Y95.522 E0.02806
G1 X152.319 Y104.505 E0.28167
G1 X152.143 Y105.122 E0.02012
G1 X151.810 Y105.667 E0.02000
G1 X151.345 Y106.103 E0.02000
G1 X150.777 Y106.402 E0.02012
G1 X149.978 Y106.544 E0.02543
G1 X119.860 Y106.571 E0.94435
G1 X119.174 Y106.440 E0.02190
G1 X118.556 Y106.115 E0.02190
G1 X118.059 Y105.624 E0.02190
G1 X117.724 Y105.007 E0.02201
G1 X117.582 Y104.228 E0.02484
G1 X117.600 Y95.403 E0.27667
G1 X117.767 Y94.776 E0.02036
G1 X118.100 Y94.214 E0.02048
G1 X118.570 Y93.767 E0.02036
G1 X119.148 Y93.462 E0.02048
G1 X119.946 Y93.319 E0.02543
G1 X149.970 Y93.290 E0.94136
G1 X150.844 Y93.458 E0.02790
G1 X151.597 Y93.938 E0.02802
G1 X152.080 Y94.606 E0.02584
G1 F8640.000
G1 X152.339 Y95.522 E-0.21962
G1 X152.333 Y97.862 E-0.54038
G1 E-0.04000 F2100.00000
G1 Z1.000 F10800.000
G1 X149.334 Y96.299
G1 Z0.400
G1 E0.80000 F2100.00000
M204 S800
G1 F1500.000
G1 X149.334 Y103.535 E0.24492
G1 X140.598 Y103.535 E0.29570
G1 X140.598 Y96.299 E0.24492
G1 X149.274 Y96.299 E0.29367
M204 S1000
G1 X149.741 Y95.892 F10800.000
M204 S800
G1 F1500.000
G1 X149.741 Y103.942 E0.27248
G1 X140.191 Y103.942 E0.32326
G1 X140.191 Y95.892 E0.27248
G1 X149.681 Y95.892 E0.32123
M204 S1000
G1 X149.627 Y96.276 F10800.000
G1 F8640.000
G1 X149.705 Y99.184 E-0.76000
G1 E-0.04000 F2100.00000
G1 Z1.000 F10800.000
G1 X141.544 Y96.422
G1 Z0.400
G1 E0.80000 F2100.00000
G1 F2073
G1 X140.903 Y97.062 E0.03071
G1 X140.903 Y97.639 E0.01954
G1 X141.937 Y96.605 E0.04956
G1 X142.514 Y96.605 E0.01954
G1 X140.903 Y98.215 E0.07720
G1 X140.903 Y98.792 E0.01954
G1 X143.090 Y96.605 E0.10483
G1 X143.667 Y96.605 E0.01954
G1 X140.903 Y99.368 E0.13246
G1 X140.903 Y99.945 E0.01954
G1 X144.243 Y96.605 E0.16009
G1 X144.820 Y96.605 E0.01954
G1 X140.903 Y100.521 E0.18772
G1 X140.903 Y101.098 E0.01954
G1 X145.396 Y96.605 E0.21536
G1 X145.973 Y96.605 E0.01954
G1 X140.903 Y101.674 E0.24299
G1 X140.903 Y102.251 E0.01954
G1 X146.549 Y96.605 E0.27062
G1 X147.126 Y96.605 E0.01954
G1 X140.903 Y102.827 E0.29825
G1 X140.903 Y103.230 E0.01366
G1 X141.077 Y103.230 E0.00588
G1 X147.702 Y96.605 E0.31757
G1 X148.279 Y96.605 E0.01954
G1 X141.653 Y103.230 E0.31757
G1 X142.230 Y103.230 E0.01954
G1 X148.855 Y96.605 E0.31757
G1 X149.029 Y96.605 E0.00588
G1 X149.029 Y97.008 E0.01366
G1 X142.806 Y103.230 E0.29826
G1 X143.383 Y103.230 E0.01954
G1 X149.029 Y97.584 E0.27063
G1 X149.029 Y98.161 E0.01954
G1 X143.959 Y103.230 E0.24299
G1 X144.536 Y103.230 E0.01954
G1 X149.029 Y98.737 E0.21536
G1 X149.029 Y99.314 E0.01954
G1 X145.112 Y103.230 E0.18773
G1 X145.689 Y103.230 E0.01954
G1 X149.029 Y99.890 E0.16010
G1 X149.029 Y100.466 E0.01954
G1 X146.265 Y103.230 E0.13247
G1 X146.841 Y103.230 E0.01954
G1 X149.029 Y101.043 E0.10483
G1 X149.029 Y101.619 E0.01954
G1 X147.418 Y103.230 E0.07720
G1 X147.994 Y103.230 E0.01954
G1 X149.029 Y102.196 E0.04957
G1 X149.029 Y102.772 E0.01954
G1 X148.388 Y103.413 E0.03072
G1 F8640.000
G1 X149.029 Y102.772 E-0.20928
G1 X149.029 Y102.196 E-0.13311
G1 X147.994 Y103.230 E-0.33770
G1 X147.648 Y103.230 E-0.07992
G1 E-0.04000 F2100.00000
G1 Z1.000 F10800.000
G1 X129.327 Y103.413
G1 Z0.400
G1 E0.80000 F2100.00000
M204 S800
G1 F1500.000
G1 X129.327 Y103.564 E0.00510
G1 X120.591 Y103.564 E0.29570
G1 X120.591 Y96.328 E0.24492
G1 X129.327 Y96.328 E0.29570
G1 X129.327 Y103.353 E0.23779
M204 S1000
G1 X129.734 Y103.971 F10800.000
M204 S800
G1 F1500.000
G1 X120.184 Y103.971 E0.32326
G1 X120.184 Y95.921 E0.27248
G1 X129.734 Y95.921 E0.32326
G1 X129.734 Y103.911 E0.27045
M204 S1000
G1 X129.345 Y103.879 F10800.000
G1 F8640.000
G1 X126.442 Y103.932 E-0.76000
G1 E-0.04000 F2100.00000
G1 Z1.000 F10800.000
G1 X121.537 Y96.450
G1 Z0.400
G1 E0.80000 F2100.00000
G1 F2073
G1 X120.896 Y97.091 E0.03071
G1 X120.896 Y97.667 E0.01954
G1 X121.930 Y96.633 E0.04956
G1 X122.507 Y96.633 E0.01954
G1 X120.896 Y98.244 E0.07720
G1 X120.896 Y98.820 E0.01954
G1 X123.083 Y96.633 E0.10483
G1 X123.660 Y96.633 E0.01954
G1 X120.896 Y99.397 E0.13246
G1 X120.896 Y99.973 E0.01954
G1 X124.236 Y96.633 E0.16009
G1 X124.813 Y96.633 E0.01954
G1 X120.896 Y100.550 E0.18772
G1 X120.896 Y101.126 E0.01954
G1 X125.389 Y96.633 E0.21536
G1 X125.966 Y96.633 E0.01954
G1 X120.896 Y101.703 E0.24299
G1 X120.896 Y102.279 E0.01954
G1 X126.542 Y96.633 E0.27062
G1 X127.118 Y96.633 E0.01954
G1 X120.896 Y102.856 E0.29825
G1 X120.896 Y103.259 E0.01366
G1 X121.070 Y103.259 E0.00588
G1 X127.695 Y96.633 E0.31757
G1 X128.271 Y96.633 E0.01954
G1 X121.646 Y103.259 E0.31757
G1 X122.223 Y103.259 E0.01954
G1 X128.848 Y96.633 E0.31757
G1 X129.021 Y96.633 E0.00588
G1 X129.021 Y97.036 E0.01366
G1 X122.799 Y103.259 E0.29826
G1 X123.376 Y103.259 E0.01954
G1 X129.021 Y97.613 E0.27063
G1 X129.021 Y98.189 E0.01954
G1 X123.952 Y103.259 E0.24299
G1 X124.528 Y103.259 E0.01954
G1 X129.021 Y98.766 E0.21536
G1 X129.021 Y99.342 E0.01954
G1 X125.105 Y103.259 E0.18773
G1 X125.681 Y103.259 E0.01954
G1 X129.021 Y99.919 E0.16010
M73 Q4 S21
G1 X129.021 Y100.495 E0.01954
G1 X126.258 Y103.259 E0.13247
G1 X126.834 Y103.259 E0.01954
G1 X129.021 Y101.072 E0.10483
G1 X129.021 Y101.648 E0.01954
G1 X127.411 Y103.259 E0.07720
M73 P4 R21
G1 X127.987 Y103.259 E0.01954
G1 X129.021 Y102.225 E0.04957
G1 X129.021 Y102.801 E0.01954
G1 X128.381 Y103.442 E0.03072
;BEFORE_LAYER_CHANGE
G92 E0.0
;0.6


G1 F8640.000
G1 X129.021 Y102.801 E-0.20928
G1 X129.021 Y102.225 E-0.13311
G1 X127.987 Y103.259 E-0.33770
G1 X127.641 Y103.259 E-0.07992
G1 E-0.04000 F2100.00000
G1 Z1.000 F10800.000
;AFTER_LAYER_CHANGE
;0.6
G1 X152.453 Y94.485
G1 Z0.600
G1 E0.80000 F2100.00000
G1 F2077
G1 X152.714 Y95.478 E0.03221
G1 X152.687 Y104.596 E0.28589
G1 X152.481 Y105.290 E0.02269
G1 X152.102 Y105.906 E0.02269
G1 X151.575 Y106.403 E0.02269
G1 X150.934 Y106.746 E0.02282
G1 X149.983 Y106.921 E0.03031
G1 X119.828 Y106.947 E0.94550
G1 X119.042 Y106.793 E0.02511
G1 X118.337 Y106.422 E0.02498
G1 X117.768 Y105.865 E0.02498
G1 X117.380 Y105.164 E0.02511
G1 X117.205 Y104.238 E0.02955
G1 X117.229 Y95.332 E0.27923
G1 X117.424 Y94.619 E0.02320
G1 X117.802 Y93.983 E0.02320
G1 X118.336 Y93.471 E0.02320
G1 X118.991 Y93.117 E0.02333
G1 X119.942 Y92.942 E0.03031
G1 X149.970 Y92.913 E0.94152
G1 X150.979 Y93.106 E0.03221
G1 X151.847 Y93.656 E0.03221
G1 X152.418 Y94.436 E0.03032
G1 X152.115 Y94.655 F10800.000
G1 F2077
G1 X152.339 Y95.522 E0.02806
G1 X152.319 Y104.505 E0.28167
G1 X152.143 Y105.122 E0.02012
G1 X151.810 Y105.667 E0.02000
G1 X151.345 Y106.103 E0.02000
G1 X150.777 Y106.402 E0.02012
G1 X149.978 Y106.544 E0.02543
G1 X119.860 Y106.571 E0.94435
G1 X119.174 Y106.440 E0.02190
G1 X118.556 Y106.115 E0.02190
G1 X118.059 Y105.624 E0.02190
G1 X117.724 Y105.007 E0.02201
G1 X117.582 Y104.228 E0.02484
G1 X117.600 Y95.403 E0.27667
G1 X117.767 Y94.776 E0.02036
G1 X118.100 Y94.214 E0.02048
G1 X118.570 Y93.767 E0.02036
G1 X119.148 Y93.462 E0.02048
G1 X119.946 Y93.319 E0.02543
G1 X149.970 Y93.290 E0.94136
G1 X150.844 Y93.458 E0.02790
G1 X151.597 Y93.938 E0.02802
G1 X152.080 Y94.606 E0.02584
G1 F8640.000
G1 X152.339 Y95.522 E-0.21962
G1 X152.333 Y97.862 E-0.54038
G1 E-0.04000 F2100.00000
G1 Z1.200 F10800.000
G1 X149.334 Y96.299
G1 Z0.600
G1 E0.80000 F2100.00000
M204 S800
G1 F1500.000
G1 X149.334 Y103.535 E0.24492
G1 X140.598 Y103.535 E0.29570
G1 X140.598 Y96.299 E0.24492
G1 X149.274 Y96.299 E0.29367
M204 S1000
G1 X149.741 Y95.892 F10800.000
M204 S800
G1 F1500.000
G1 X149.741 Y103.942 E0.27248
G1 X140.191 Y103.942 E0.32326
G1 X140.191 Y95.892 E0.27248
G1 X149.681 Y95.892 E0.32123
M204 S1000
G1 X149.627 Y96.276 F10800.000
G1 F8640.000
G1 X149.705 Y99.184 E-0.76000
