; generated by PrusaSlicer 2.2.0 on 2020-05-14 at 09:29:13 UTC

; 

; external perimeters extrusion width = 0.45mm
; perimeters extrusion width = 0.45mm
; infill extrusion width = 0.45mm
; solid infill extrusion width = 0.45mm
; top infill extrusion width = 0.40mm
; first layer extrusion width = 0.42mm

M73 P0 R20
M73 Q0 S20
M201 X1000 Y1000 Z1000 E5000 ; sets maximum accelerations, mm/sec^2
M203 X200 Y200 Z12 E120 ; sets maximum feedrates, mm/sec
M204 P1250 R1250 T1250 ; sets acceleration (P, T) and retract acceleration (R), mm/sec^2
M205 X8.00 Y8.00 Z0.40 E4.50 ; sets the jerk limits, mm/sec
M205 S0 T0 ; sets the minimum extruding and travel feed rate, mm/sec
M107
M862.3 P "MK3S" ; printer model check
M862.1 P0.4 ; nozzle diameter check
M115 U3.8.1 ; tell printer latest fw version
G90 ; use absolute coordinates
M83 ; extruder relative mode
M104 S215 ; set extruder temp
M140 S60 ; set bed temp
M190 S60 ; wait for bed temp
M109 S215 ; wait for extruder temp
G28 W ; home all without mesh bed level
G80 ; mesh bed leveling
G1 Y-3.0 F1000.0 ; go outside print area
G92 E0.0
G1 X60.0 E9.0 F1000.0 ; intro line
M73 Q0 S20
M73 P0 R20
G1 X100.0 E12.5 F1000.0 ; intro line
G92 E0.0
M221 S95
G21 ; set units to millimeters
G90 ; use absolute coordinates
M83 ; use relative distances for extrusion
M900 K30 ; Filament gcode
;BEFORE_LAYER_CHANGE
G92 E0.0
;0.2


G1 E-0.80000 F2100.00000
G1 Z0.600 F10800.000
;AFTER_LAYER_CHANGE
;0.2
G1 X139.326 Y96.597
G1 Z0.200
G1 E0.80000 F2100.00000
M204 S1000
G1 F1200.000
G1 X139.707 Y97.564 E0.03258
G1 X139.749 Y112.092 E0.45550
G1 X139.656 Y112.657 E0.01796
G1 X139.448 Y113.191 E0.01796
G1 X139.136 Y113.667 E0.01784
G1 X138.730 Y114.071 E0.01796
G1 X136.229 Y115.548 E0.09105
G1 X135.732 Y115.738 E0.01669
G1 X135.204 Y115.829 E0.01681
G1 X114.959 Y115.837 E0.63476
G1 X114.314 Y115.750 E0.02039
G1 X113.708 Y115.515 E0.02039
G1 X111.497 Y114.236 E0.08008
G1 X110.858 Y113.659 E0.02701
G1 X110.422 Y112.897 E0.02752
G1 X110.248 Y112.037 E0.02752
G1 X110.247 Y98.006 E0.43991
G1 X110.326 Y97.414 E0.01873
G1 X110.528 Y96.856 E0.01860
G1 X110.849 Y96.352 E0.01873
G1 X111.270 Y95.929 E0.01873
G1 X113.771 Y94.452 E0.09105
G1 X114.268 Y94.262 E0.01669
G1 X114.796 Y94.171 E0.01681
G1 X135.004 Y94.163 E0.63360
G1 X135.598 Y94.229 E0.01873
G1 X136.160 Y94.419 E0.01860
G1 X138.614 Y95.840 E0.08893
G1 X139.285 Y96.554 E0.03070
G1 X139.010 Y96.803 F10800.000
G1 F1200.000
G1 X139.339 Y97.649 E0.02849
G1 X139.374 Y112.054 E0.45165
G1 X139.293 Y112.553 E0.01585
G1 X139.111 Y113.021 E0.01574
G1 X138.835 Y113.439 E0.01574
G1 X138.474 Y113.793 E0.01585
G1 X136.068 Y115.207 E0.08748
G1 X135.170 Y115.454 E0.02919
G1 X114.966 Y115.460 E0.63350
G1 X114.401 Y115.383 E0.01787
G1 X113.874 Y115.176 E0.01775
G1 X111.708 Y113.923 E0.07847
G1 X111.135 Y113.403 E0.02426
G1 X110.767 Y112.744 E0.02367
G1 X110.624 Y112.006 E0.02355
G1 X110.624 Y98.018 E0.43858
G1 X110.692 Y97.502 E0.01633
G1 X110.872 Y97.013 E0.01633
G1 X111.153 Y96.575 E0.01633
G1 X111.526 Y96.207 E0.01645
G1 X113.932 Y94.793 E0.08748
G1 X114.830 Y94.546 E0.02919
G1 X135.004 Y94.540 E0.63255
G1 X135.525 Y94.599 E0.01645
G1 X136.017 Y94.769 E0.01633
G1 X138.387 Y96.141 E0.08586
G1 X138.969 Y96.759 E0.02661
G1 F8640.000
G1 X139.339 Y97.649 E-0.22269
G1 X139.345 Y99.976 E-0.53731
G1 E-0.04000 F2100.00000
G1 Z0.800 F10800.000
G1 X110.059 Y104.053
G1 Z0.200
G1 E0.80000 F2100.00000
G1 F1200.000
G1 X109.251 Y103.258 E0.03555
G1 X108.598 Y102.100 E0.04165
G1 X108.291 Y100.804 E0.04177
G1 X108.296 Y97.609 E0.10018
G1 X108.559 Y96.457 E0.03706
G1 X109.146 Y95.336 E0.03969
G1 X110.262 Y94.217 E0.04955
G1 X113.264 Y92.522 E0.10808
G1 X114.416 Y92.227 E0.03729
G1 X115.626 Y92.233 E0.03791
G1 X116.977 Y92.622 E0.04408
G1 X119.339 Y93.980 E0.08544
G1 F8640.000
G1 X116.977 Y92.622 E-0.62919
G1 X116.432 Y92.465 E-0.13081
G1 E-0.04000 F2100.00000
G1 Z0.800 F10800.000
G1 X120.663 Y93.980
G1 Z0.200
G1 E0.80000 F2100.00000
G1 F1200.000
G1 X123.078 Y92.599 E0.08724
G1 X124.459 Y92.222 E0.04488
G1 X125.730 Y92.248 E0.03985
G1 X126.943 Y92.608 E0.03966
G1 X129.319 Y93.977 E0.08598
G1 F8640.000
G1 X126.943 Y92.608 E-0.63316
G1 X126.416 Y92.452 E-0.12684
G1 E-0.04000 F2100.00000
G1 Z0.800 F10800.000
G1 X130.671 Y93.976
G1 Z0.200
G1 E0.80000 F2100.00000
G1 F1200.000
G1 X133.121 Y92.581 E0.08840
G1 X134.403 Y92.229 E0.04166
G1 X135.671 Y92.240 E0.03978
G1 X136.894 Y92.587 E0.03986
G1 X139.868 Y94.317 E0.10787
G1 X140.865 Y95.352 E0.04507
G1 X141.465 Y96.524 E0.04129
G1 X141.714 Y97.703 E0.03777
G1 X141.692 Y100.947 E0.10171
G1 X141.385 Y102.145 E0.03877
G1 X140.787 Y103.206 E0.03820
G1 X139.914 Y104.071 E0.03853
G1 X139.167 Y104.563 F10800.000
G1 F1200.000
G1 X138.410 Y105.008 E0.02753
G1 X139.169 Y105.454 E0.02762
G1 X139.920 Y105.917 F10800.000
G1 F1200.000
G1 X140.830 Y106.851 E0.04090
G1 X141.464 Y108.065 E0.04295
G1 X141.714 Y109.247 E0.03787
G1 X141.703 Y112.402 E0.09892
G1 X141.406 Y113.637 E0.03984
G1 X140.823 Y114.705 E0.03814
G1 X139.703 Y115.810 E0.04934
G1 X137.029 Y117.354 E0.09681
G1 X135.663 Y117.762 E0.04471
G1 X134.384 Y117.768 E0.04008
G1 X133.124 Y117.421 E0.04098
G1 X130.664 Y116.020 E0.08877
G1 F8640.000
G1 X133.124 Y117.421 E-0.65370
G1 X133.568 Y117.543 E-0.10630
G1 E-0.04000 F2100.00000
G1 Z0.800 F10800.000
G1 X129.326 Y116.020
G1 Z0.200
G1 E0.80000 F2100.00000
G1 F1200.000
G1 X126.991 Y117.370 E0.08458
G1 X125.661 Y117.762 E0.04347
G1 X124.382 Y117.768 E0.04011
G1 X123.081 Y117.403 E0.04237
G1 X120.669 Y116.023 E0.08712
G1 F8640.000
G1 X123.081 Y117.403 E-0.64160
G1 X123.575 Y117.541 E-0.11840
G1 E-0.04000 F2100.00000
G1 Z0.800 F10800.000
G1 X119.320 Y116.024
G1 Z0.200
G1 E0.80000 F2100.00000
G1 F1200.000
G1 X116.987 Y117.372 E0.08448
G1 X115.646 Y117.764 E0.04382
G1 X114.422 Y117.773 E0.03837
G1 X113.170 Y117.439 E0.04063
G1 X110.184 Y115.723 E0.10799
G1 X109.216 Y114.758 E0.04287
G1 X108.561 Y113.550 E0.04307
G1 X108.296 Y112.396 E0.03713
G1 X108.296 Y109.157 E0.10156
G1 X108.597 Y107.903 E0.04043
G1 X109.217 Y106.786 E0.04007
G1 X110.059 Y105.948 E0.03724
G1 X110.812 Y105.459 F10800.000
G1 F1200.000
G1 X111.599 Y105.002 E0.02852
G1 X110.812 Y104.543 E0.02855
G1 X110.812 Y104.106 F10800.000
G1 F1200.000
G1 X112.353 Y105.005 E0.05592
G1 X110.812 Y105.890 E0.05571
G1 X110.059 Y106.476 F10800.000
G1 F1200.000
G1 X109.534 Y106.993 E0.02312
G1 X108.939 Y108.064 E0.03839
G1 X108.673 Y109.179 E0.03595
G1 X108.674 Y112.374 E0.10018
G1 X108.922 Y113.440 E0.03431
G1 X109.502 Y114.510 E0.03816
G1 X110.433 Y115.439 E0.04122
G1 X113.336 Y117.100 E0.10489
G1 X114.447 Y117.396 E0.03605
G1 X115.566 Y117.395 E0.03510
G1 X116.860 Y117.017 E0.04224
G1 X118.570 Y116.024 E0.06201
G1 F8640.000
G1 X116.860 Y117.017 E-0.45666
G1 X115.599 Y117.385 E-0.30334
G1 E-0.04000 F2100.00000
G1 Z0.800 F10800.000
G1 X119.738 Y115.270
G1 Z0.200
G1 E0.80000 F2100.00000
G1 F1200.000
G1 X120.003 Y115.016 E0.01149
G1 X120.269 Y115.270 E0.01153
G1 F8640.000
G1 X120.003 Y115.016 E-0.08494
G1 X119.738 Y115.270 E-0.08460
G1 E-0.63046 F2100.00000
G1 Z0.800 F10800.000
G1 X121.428 Y116.023
G1 Z0.200
G1 E0.80000 F2100.00000
G1 F1200.000
G1 X123.247 Y117.063 E0.06571
G1 X124.456 Y117.397 E0.03932
G1 X125.630 Y117.386 E0.03681
G1 X126.861 Y117.016 E0.04030
G1 X128.576 Y116.020 E0.06219
G1 F8640.000
G1 X126.861 Y117.016 E-0.45798
G1 X125.630 Y117.386 E-0.29676
G1 X125.607 Y117.386 E-0.00526
G1 E-0.04000 F2100.00000
G1 Z0.800 F10800.000
G1 X129.741 Y115.267
G1 Z0.200
G1 E0.80000 F2100.00000
G1 F1200.000
G1 X130.003 Y115.016 E0.01136
G1 X130.266 Y115.267 E0.01140
G1 F8640.000
G1 X130.003 Y115.016 E-0.08397
G1 X129.741 Y115.267 E-0.08364
G1 E-0.63240 F2100.00000
G1 Z0.800 F10800.000
G1 X131.422 Y116.019
G1 Z0.200
G1 E0.80000 F2100.00000
G1 F1200.000
G1 X133.247 Y117.064 E0.06594
G1 X134.459 Y117.397 E0.03939
G1 X135.632 Y117.385 E0.03678
G1 X136.859 Y117.017 E0.04019
G1 X139.493 Y115.496 E0.09535
G1 X140.537 Y114.458 E0.04616
G1 X141.062 Y113.481 E0.03478
G1 X141.326 Y112.379 E0.03553
G1 X141.337 Y109.266 E0.09759
G1 X141.100 Y108.170 E0.03517
G1 X140.540 Y107.093 E0.03807
G1 X139.921 Y106.452 E0.02793
G1 X139.170 Y105.892 F10800.000
G1 F1200.000
G1 X137.660 Y105.005 E0.05491
G1 X139.166 Y104.131 E0.05459
G1 X139.913 Y103.542 F10800.000
G1 F1200.000
G1 X140.503 Y102.958 E0.02603
G1 X141.043 Y101.983 E0.03494
G1 X141.315 Y100.921 E0.03438
G1 X141.337 Y97.720 E0.10037
G1 X141.118 Y96.673 E0.03353
G1 X140.543 Y95.550 E0.03958
G1 X139.616 Y94.599 E0.04162
G1 X136.725 Y92.925 E0.10474
G1 X135.641 Y92.616 E0.03537
G1 X134.476 Y92.600 E0.03651
G1 X133.244 Y92.938 E0.04006
G1 X131.430 Y93.976 E0.06553
G1 F8640.000
G1 X133.244 Y92.938 E-0.48261
G1 X134.403 Y92.620 E-0.27739
G1 E-0.04000 F2100.00000
G1 Z0.800 F10800.000
G1 X130.270 Y94.730
G1 Z0.200
G1 E0.80000 F2100.00000
G1 F1200.000
G1 X130.003 Y94.984 E0.01156
G1 X129.738 Y94.730 E0.01149
G1 F8640.000
G1 X130.003 Y94.984 E-0.08465
G1 X130.270 Y94.730 E-0.08512
G1 E-0.63023 F2100.00000
G1 Z0.800 F10800.000
G1 X128.568 Y93.977
G1 Z0.200
G1 E0.80000 F2100.00000
G1 F1200.000
G1 X126.814 Y92.963 E0.06351
G1 X125.648 Y92.617 E0.03813
G1 X124.481 Y92.599 E0.03661
G1 X123.245 Y92.938 E0.04018
G1 X121.423 Y93.979 E0.06580
G1 F8640.000
G1 X123.245 Y92.938 E-0.48457
G1 X124.395 Y92.623 E-0.27543
G1 E-0.04000 F2100.00000
G1 Z0.800 F10800.000
G1 X120.267 Y94.733
G1 Z0.200
G1 E0.80000 F2100.00000
G1 F1200.000
G1 X120.000 Y94.986 E0.01154
G1 X119.734 Y94.733 E0.01152
G1 F8640.000
G1 X120.000 Y94.986 E-0.08486
G1 X120.267 Y94.733 E-0.08495
G1 E-0.63018 F2100.00000
G1 Z0.800 F10800.000
G1 X118.583 Y93.981
G1 Z0.200
G1 E0.80000 F2100.00000
G1 F1200.000
G1 X116.808 Y92.960 E0.06418
G1 X115.596 Y92.610 E0.03958
G1 X114.486 Y92.599 E0.03480
G1 X113.382 Y92.881 E0.03572
G1 X110.472 Y94.532 E0.10491
G1 X109.435 Y95.580 E0.04624
G1 X108.920 Y96.565 E0.03484
G1 X108.673 Y97.631 E0.03431
G1 X108.668 Y100.782 E0.09878
G1 X108.959 Y101.986 E0.03884
G1 X109.536 Y103.009 E0.03681
G1 X110.059 Y103.529 E0.02313
G1 X110.059 Y102.997 F10800.000
G1 F1200.000
G1 X109.821 Y102.760 E0.01052
G1 X109.301 Y101.826 E0.03352
G1 X109.045 Y100.760 E0.03438
G1 X109.045 Y97.695 E0.09608
G1 X109.282 Y96.675 E0.03285
G1 X109.755 Y95.782 E0.03169
G1 X110.681 Y94.847 E0.04126
G1 X113.502 Y93.239 E0.10181
G1 X114.508 Y92.976 E0.03259
G1 X115.566 Y92.987 E0.03319
G1 X116.640 Y93.299 E0.03506
G1 X117.827 Y93.981 E0.04293
G1 F8640.000
G1 X116.640 Y93.299 E-0.31613
G1 X115.566 Y92.987 E-0.25818
G1 E-0.22569 F2100.00000
G1 Z0.800 F10800.000
G1 X119.136 Y94.733
G1 Z0.200
G1 E0.80000 F2100.00000
G1 F1200.000
G1 X119.281 Y94.817 E0.00525
G1 X120.000 Y95.514 E0.03140
G1 X120.721 Y94.816 E0.03147
G1 X120.865 Y94.733 E0.00523
G1 F8640.000
G1 X120.721 Y94.816 E-0.03848
G1 X120.000 Y95.514 E-0.23176
G1 X119.281 Y94.817 E-0.23126
G1 X119.136 Y94.733 E-0.03868
G1 E-0.25982 F2100.00000
G1 Z0.800 F10800.000
G1 X122.183 Y93.979
G1 Z0.200
G1 E0.80000 F2100.00000
G1 F1200.000
G1 X123.412 Y93.277 E0.04437
G1 X124.504 Y92.977 E0.03553
G1 X125.567 Y92.987 E0.03332
G1 X126.685 Y93.318 E0.03658
G1 X127.821 Y93.977 E0.04116
G1 F8640.000
G1 X126.685 Y93.318 E-0.30310
G1 X125.567 Y92.987 E-0.26938
G1 X124.755 Y92.979 E-0.18752
G1 E-0.04000 F2100.00000
G1 Z0.800 F10800.000
G1 X129.119 Y94.730
G1 Z0.200
G1 E0.80000 F2100.00000
G1 F1200.000
G1 X129.324 Y94.850 E0.00745
G1 X130.001 Y95.513 E0.02971
G1 X130.721 Y94.816 E0.03143
G1 X130.871 Y94.730 E0.00542
G1 F8640.000
G1 X130.721 Y94.816 E-0.03989
G1 X130.001 Y95.513 E-0.23145
G1 X129.324 Y94.850 E-0.21882
G1 X129.119 Y94.730 E-0.05488
G1 E-0.25496 F2100.00000
G1 Z0.800 F10800.000
G1 X132.190 Y93.975
G1 Z0.200
G1 E0.80000 F2100.00000
G1 F1200.000
G1 X133.411 Y93.277 E0.04410
G1 X134.500 Y92.977 E0.03542
G1 X135.562 Y92.986 E0.03331
G1 X136.600 Y93.282 E0.03382
G1 X139.364 Y94.881 E0.10015
G1 X140.253 Y95.792 E0.03991
G1 X140.755 Y96.776 E0.03463
G1 X140.959 Y97.739 E0.03086
G1 X140.943 Y100.852 E0.09762
G1 X140.700 Y101.825 E0.03143
G1 X140.216 Y102.711 E0.03166
G1 X139.911 Y103.016 E0.01351
G1 F8640.000
G1 X140.216 Y102.711 E-0.09952
G1 X140.700 Y101.825 E-0.23314
G1 X140.943 Y100.852 E-0.23149
G1 X140.948 Y100.004 E-0.19585
G1 E-0.04000 F2100.00000
G1 Z0.800 F10800.000
G1 X139.165 Y103.696
G1 Z0.200
G1 E0.80000 F2100.00000
G1 F1200.000
G1 X136.909 Y105.005 E0.08178
G1 X139.171 Y106.323 E0.08210
G1 F8640.000
G1 X136.909 Y105.005 E-0.60460
G1 X137.491 Y104.667 E-0.15540
G1 E-0.04000 F2100.00000
G1 Z0.800 F10800.000
G1 X139.923 Y106.990
G1 Z0.200
G1 E0.80000 F2100.00000
G1 F1200.000
G1 X140.220 Y107.293 E0.01332
G1 X140.738 Y108.276 E0.03483
G1 X140.959 Y109.286 E0.03242
G1 X140.949 Y112.356 E0.09624
G1 X140.717 Y113.327 E0.03129
G1 X140.250 Y114.213 E0.03142
G1 X139.283 Y115.182 E0.04293
G1 X136.690 Y116.679 E0.09388
G1 X135.599 Y117.009 E0.03573
G1 X134.532 Y117.026 E0.03344
G1 X133.371 Y116.706 E0.03778
G1 X132.174 Y116.019 E0.04326
G1 F8640.000
G1 X133.371 Y116.706 E-0.31859
G1 X134.532 Y117.026 E-0.27820
G1 X135.239 Y117.015 E-0.16321
G1 E-0.04000 F2100.00000
G1 Z0.800 F10800.000
G1 X130.864 Y115.267
G1 Z0.200
G1 E0.80000 F2100.00000
G1 F1200.000
G1 X130.719 Y115.183 E0.00524
G1 X130.001 Y114.487 E0.03137
G1 X129.324 Y115.150 E0.02971
G1 X129.123 Y115.267 E0.00729
G1 F8640.000
G1 X129.324 Y115.150 E-0.05370
G1 X130.001 Y114.487 E-0.21881
G1 X130.719 Y115.183 E-0.23099
G1 X130.864 Y115.267 E-0.03861
G1 E-0.25788 F2100.00000
G1 Z0.800 F10800.000
G1 X127.825 Y116.021
G1 Z0.200
G1 E0.80000 F2100.00000
G1 F1200.000
G1 X126.690 Y116.679 E0.04112
G1 X125.597 Y117.009 E0.03581
G1 X124.530 Y117.026 E0.03347
G1 X123.371 Y116.706 E0.03770
G1 X122.181 Y116.023 E0.04304
G1 F8640.000
G1 X123.371 Y116.706 E-0.31692
G1 X124.530 Y117.026 E-0.27764
G1 X125.246 Y117.015 E-0.16544
G1 E-0.04000 F2100.00000
G1 Z0.800 F10800.000
G1 X120.869 Y115.269
G1 Z0.200
G1 E0.80000 F2100.00000
G1 F1200.000
G1 X120.719 Y115.183 E0.00543
G1 X120.001 Y114.487 E0.03137
G1 X119.324 Y115.150 E0.02971
G1 X119.118 Y115.270 E0.00747
G1 F8640.000
G1 X119.324 Y115.150 E-0.05504
G1 X120.001 Y114.487 E-0.21881
G1 X120.719 Y115.183 E-0.23099
G1 X120.869 Y115.269 E-0.03996
G1 E-0.25520 F2100.00000
G1 Z0.800 F10800.000
G1 X117.818 Y116.024
G1 Z0.200
G1 E0.80000 F2100.00000
G1 F1200.000
G1 X116.690 Y116.679 E0.04092
G1 X115.539 Y117.018 E0.03761
G1 X114.472 Y117.019 E0.03344
G1 X113.459 Y116.743 E0.03294
G1 X110.681 Y115.154 E0.10033
G1 X109.787 Y114.263 E0.03957
G1 X109.283 Y113.328 E0.03330
G1 X109.051 Y112.351 E0.03150
G1 X109.045 Y109.242 E0.09746
G1 X109.283 Y108.221 E0.03287
G1 X109.819 Y107.241 E0.03505
G1 X110.059 Y107.002 E0.01059
G1 F8640.000
G1 X109.819 Y107.241 E-0.07800
G1 X109.283 Y108.221 E-0.25812
G1 X109.045 Y109.242 E-0.24208
G1 X109.047 Y110.030 E-0.18180
G1 E-0.04000 F2100.00000
G1 Z0.800 F10800.000
G1 X110.812 Y106.325
G1 Z0.200
G1 E0.80000 F2100.00000
G1 F1200.000
G1 X113.108 Y105.005 E0.08303
G1 X110.812 Y103.676 E0.08319
G1 X110.812 Y103.215 F10800.000
G1 F1200.000
G1 X110.891 Y103.293 E0.00346
G1 X113.865 Y105.005 E0.10763
G1 X110.850 Y106.739 E0.10906
G1 X110.812 Y106.776 E0.00166
G1 F8640.000
G1 X110.850 Y106.739 E-0.01221
G1 X113.657 Y105.125 E-0.74779
G1 E-0.04000 F2100.00000
G1 Z0.800 F10800.000
G1 X110.059 Y107.575
G1 Z0.200
G1 E0.80000 F2100.00000
G1 F1200.000
G1 X109.627 Y108.376 E0.02854
G1 X109.418 Y109.304 E0.02982
G1 X109.428 Y112.327 E0.09478
G1 X109.644 Y113.215 E0.02868
G1 X110.073 Y114.016 E0.02848
G1 X110.930 Y114.869 E0.03791
G1 X113.581 Y116.385 E0.09576
G1 X114.546 Y116.648 E0.03137
G1 X115.509 Y116.641 E0.03019
G1 X116.520 Y116.342 E0.03305
G1 X117.067 Y116.025 E0.01983
G1 F8640.000
G1 X116.520 Y116.342 E-0.14600
G1 X115.509 Y116.641 E-0.24341
G1 X114.546 Y116.648 E-0.22235
G1 X113.927 Y116.479 E-0.14825
G1 E-0.04000 F2100.00000
G1 Z0.800 F10800.000
G1 X118.367 Y115.270
G1 Z0.200
G1 E0.80000 F2100.00000
G1 F1200.000
G1 X119.113 Y114.837 E0.02707
G1 X119.999 Y113.954 E0.03921
G1 X120.928 Y114.869 E0.04088
G1 X121.626 Y115.269 E0.02522
G1 F8640.000
G1 X120.928 Y114.869 E-0.18569
G1 X119.999 Y113.954 E-0.30105
G1 X119.161 Y114.789 E-0.27326
G1 E-0.04000 F2100.00000
G1 Z0.800 F10800.000
