; generated by PrusaSlicer 2.2.0 on 2020-05-25 at 17:46:36 UTC

; 

; external perimeters extrusion width = 0.45mm
; perimeters extrusion width = 0.45mm
; infill extrusion width = 0.45mm
; solid infill extrusion width = 0.45mm
; top infill extrusion width = 0.40mm
; support material extrusion width = 0.35mm
; first layer extrusion width = 0.42mm

M73 P0 R138
M73 Q0 S138
M201 X1000 Y1000 Z1000 E5000 ; sets maximum accelerations, mm/sec^2
M203 X200 Y200 Z12 E120 ; sets maximum feedrates, mm/sec
M204 P1250 R1250 T1250 ; sets acceleration (P, T) and retract acceleration (R), mm/sec^2
M205 X8.00 Y8.00 Z0.40 E4.50 ; sets the jerk limits, mm/sec
M205 S0 T0 ; sets the minimum extruding and travel feed rate, mm/sec
M107
M862.3 P "MK3S" ; printer model check
M862.1 P0.4 ; nozzle diameter check
M115 U3.8.1 ; tell printer latest fw version
G90 ; use absolute coordinates
M83 ; extruder relative mode
M104 S215 ; set extruder temp
M140 S60 ; set bed temp
M190 S60 ; wait for bed temp
M109 S215 ; wait for extruder temp
G28 W ; home all without mesh bed level
G80 ; mesh bed leveling
G1 Y-3.0 F1000.0 ; go outside print area
G92 E0.0
G1 X60.0 E9.0 F1000.0 ; intro line
M73 Q0 S138
M73 P0 R138
G1 X100.0 E12.5 F1000.0 ; intro line
G92 E0.0
M221 S95
G21 ; set units to millimeters
G90 ; use absolute coordinates
M83 ; use relative distances for extrusion
M900 K0.06 ; Filament gcode LA 1.5
M900 K30 ; Filament gcode LA 1.0
;BEFORE_LAYER_CHANGE
G92 E0.0
;0.2


G1 E-0.80000 F2100.00000
G1 Z0.600 F10800.000
;AFTER_LAYER_CHANGE
;0.2
G1 X81.859 Y74.788
G1 Z0.200
G1 E0.80000 F2100.00000
M204 S1000
G1 F1200.000
G1 X82.625 Y74.286 E0.02872
G1 X83.524 Y74.110 E0.02872
G1 X166.495 Y74.280 E2.60150
G1 X167.214 Y74.397 E0.02284
G1 X167.861 Y74.723 E0.02272
G1 X168.274 Y75.099 E0.01752
G1 X168.588 Y75.561 E0.01752
G1 X168.786 Y76.084 E0.01752
G1 X168.856 Y76.634 E0.01740
G1 X168.856 Y133.532 E1.78397
G1 X168.738 Y134.250 E0.02284
G1 X168.411 Y134.897 E0.02272
G1 X168.035 Y135.310 E0.01752
G1 X167.572 Y135.623 E0.01752
G1 X167.049 Y135.820 E0.01752
G1 X166.495 Y135.889 E0.01752
G1 X83.510 Y135.890 E2.60194
G1 X82.791 Y135.774 E0.02284
G1 X82.137 Y135.445 E0.02296
G1 X81.729 Y135.074 E0.01728
G1 X81.416 Y134.616 E0.01740
G1 X81.217 Y134.098 E0.01740
G1 X81.144 Y133.552 E0.01728
G1 X81.145 Y76.434 E1.79088
G1 X81.341 Y75.540 E0.02872
G1 X81.825 Y74.838 E0.02672
G1 F8640.000
G1 X82.625 Y74.286 E-0.22440
G1 X83.524 Y74.110 E-0.21151
G1 X84.928 Y74.113 E-0.32409
G1 E-0.04000 F2100.00000
G1 Z0.800 F10800.000
G1 X83.521 Y76.488
G1 Z0.200
G1 E0.80000 F2100.00000
G1 F1200.000
G1 X83.521 Y87.201 E0.33592
G1 X84.275 Y87.201 E0.02365
G1 X84.275 Y76.657 E0.33060
G1 X85.030 Y76.657 E0.02365
G1 X85.030 Y87.201 E0.33060
G1 X85.784 Y87.201 E0.02365
G1 X85.784 Y84.578 E0.08224
G1 X85.438 Y84.578 E0.01085
G1 X85.438 Y79.280 E0.16613
G1 X85.784 Y79.280 E0.01085
G1 X85.784 Y76.657 E0.08224
G1 X86.538 Y76.657 E0.02365
G1 X86.538 Y79.280 E0.08224
G1 X87.292 Y79.280 E0.02365
G1 X87.292 Y76.657 E0.08224
G1 X88.046 Y76.657 E0.02365
G1 X88.046 Y79.280 E0.08224
G1 X88.800 Y79.280 E0.02365
G1 X88.800 Y76.657 E0.08224
G1 X89.555 Y76.657 E0.02365
G1 X89.555 Y79.280 E0.08224
G1 X90.309 Y79.280 E0.02365
G1 X90.309 Y76.657 E0.08224
G1 X91.063 Y76.657 E0.02365
G1 X91.063 Y79.280 E0.08224
G1 X91.817 Y79.280 E0.02365
G1 X91.817 Y76.657 E0.08224
G1 X92.571 Y76.657 E0.02365
G1 X92.571 Y79.280 E0.08224
G1 X93.325 Y79.280 E0.02365
G1 X93.325 Y76.657 E0.08224
G1 X94.079 Y76.657 E0.02365
G1 X94.079 Y79.280 E0.08224
G1 X94.834 Y79.280 E0.02365
G1 X94.834 Y76.657 E0.08224
G1 X95.588 Y76.657 E0.02365
G1 X95.588 Y79.280 E0.08224
G1 X96.342 Y79.280 E0.02365
G1 X96.342 Y76.657 E0.08224
G1 X97.096 Y76.657 E0.02365
G1 X97.096 Y79.280 E0.08224
G1 X97.850 Y79.280 E0.02365
G1 X97.850 Y76.657 E0.08224
G1 X98.604 Y76.657 E0.02365
G1 X98.604 Y79.280 E0.08224
G1 X99.359 Y79.280 E0.02365
G1 X99.359 Y76.657 E0.08224
G1 X100.113 Y76.657 E0.02365
G1 X100.113 Y79.280 E0.08224
G1 X100.867 Y79.280 E0.02365
G1 X100.867 Y76.657 E0.08224
G1 X101.621 Y76.657 E0.02365
G1 X101.621 Y79.280 E0.08224
G1 X102.375 Y79.280 E0.02365
G1 X102.375 Y76.657 E0.08224
G1 X103.129 Y76.657 E0.02365
G1 X103.129 Y79.280 E0.08224
G1 X103.884 Y79.280 E0.02365
G1 X103.884 Y76.657 E0.08224
G1 X104.638 Y76.657 E0.02365
G1 X104.638 Y79.280 E0.08224
G1 X105.392 Y79.280 E0.02365
G1 X105.392 Y76.657 E0.08224
G1 X106.146 Y76.657 E0.02365
G1 X106.146 Y79.280 E0.08224
G1 X106.900 Y79.280 E0.02365
G1 X106.900 Y76.657 E0.08224
G1 X107.654 Y76.657 E0.02365
G1 X107.654 Y79.280 E0.08224
G1 X108.409 Y79.280 E0.02365
G1 X108.409 Y76.657 E0.08224
G1 X109.163 Y76.657 E0.02365
G1 X109.163 Y79.280 E0.08224
G1 X109.917 Y79.280 E0.02365
G1 X109.917 Y76.657 E0.08224
G1 X110.671 Y76.657 E0.02365
G1 X110.671 Y79.280 E0.08224
G1 X111.425 Y79.280 E0.02365
G1 X111.425 Y76.657 E0.08224
G1 X112.179 Y76.657 E0.02365
G1 X112.179 Y79.280 E0.08224
G1 X112.933 Y79.280 E0.02365
G1 X112.933 Y76.657 E0.08224
G1 X113.688 Y76.657 E0.02365
G1 X113.688 Y79.280 E0.08224
G1 X114.442 Y79.280 E0.02365
G1 X114.442 Y76.657 E0.08224
G1 X115.196 Y76.657 E0.02365
G1 X115.196 Y79.280 E0.08224
G1 X115.950 Y79.280 E0.02365
G1 X115.950 Y76.657 E0.08224
G1 X116.704 Y76.657 E0.02365
G1 X116.704 Y79.280 E0.08224
G1 X117.458 Y79.280 E0.02365
G1 X117.458 Y76.657 E0.08224
G1 X118.213 Y76.657 E0.02365
G1 X118.213 Y79.280 E0.08224
G1 X118.967 Y79.280 E0.02365
G1 X118.967 Y76.657 E0.08224
G1 X119.721 Y76.657 E0.02365
G1 X119.721 Y79.280 E0.08224
G1 X120.475 Y79.280 E0.02365
G1 X120.475 Y76.657 E0.08224
G1 X121.229 Y76.657 E0.02365
G1 X121.229 Y79.280 E0.08224
G1 X121.983 Y79.280 E0.02365
G1 X121.983 Y76.657 E0.08224
G1 X122.738 Y76.657 E0.02365
G1 X122.738 Y79.280 E0.08224
G1 X123.492 Y79.280 E0.02365
G1 X123.492 Y76.657 E0.08224
G1 X124.246 Y76.657 E0.02365
G1 X124.246 Y79.280 E0.08224
G1 X125.000 Y79.280 E0.02365
G1 X125.000 Y76.657 E0.08224
G1 X125.754 Y76.657 E0.02365
G1 X125.754 Y79.280 E0.08224
G1 X126.508 Y79.280 E0.02365
G1 X126.508 Y76.657 E0.08224
G1 X127.262 Y76.657 E0.02365
G1 X127.262 Y79.280 E0.08224
G1 X128.017 Y79.280 E0.02365
G1 X128.017 Y76.657 E0.08224
G1 X128.771 Y76.657 E0.02365
G1 X128.771 Y79.280 E0.08224
G1 X129.525 Y79.280 E0.02365
G1 X129.525 Y76.657 E0.08224
G1 X130.279 Y76.657 E0.02365
G1 X130.279 Y79.280 E0.08224
G1 X131.033 Y79.280 E0.02365
G1 X131.033 Y76.657 E0.08224
G1 X131.787 Y76.657 E0.02365
G1 X131.787 Y79.280 E0.08224
G1 X132.542 Y79.280 E0.02365
G1 X132.542 Y76.657 E0.08224
G1 X133.296 Y76.657 E0.02365
G1 X133.296 Y79.280 E0.08224
G1 X134.050 Y79.280 E0.02365
G1 X134.050 Y76.657 E0.08224
G1 X134.804 Y76.657 E0.02365
G1 X134.804 Y79.280 E0.08224
G1 X135.558 Y79.280 E0.02365
G1 X135.558 Y76.657 E0.08224
G1 X136.312 Y76.657 E0.02365
G1 X136.312 Y79.280 E0.08224
G1 X137.067 Y79.280 E0.02365
G1 X137.067 Y76.657 E0.08224
G1 X137.821 Y76.657 E0.02365
G1 X137.821 Y79.280 E0.08224
G1 X138.575 Y79.280 E0.02365
G1 X138.575 Y76.657 E0.08224
G1 X139.329 Y76.657 E0.02365
G1 X139.329 Y79.280 E0.08224
G1 X140.083 Y79.280 E0.02365
G1 X140.083 Y76.657 E0.08224
G1 X140.837 Y76.657 E0.02365
G1 X140.837 Y79.280 E0.08224
G1 X141.591 Y79.280 E0.02365
G1 X141.591 Y76.657 E0.08224
G1 X142.346 Y76.657 E0.02365
G1 X142.346 Y79.280 E0.08224
G1 X143.100 Y79.280 E0.02365
G1 X143.100 Y76.657 E0.08224
G1 X143.854 Y76.657 E0.02365
G1 X143.854 Y79.280 E0.08224
G1 X144.608 Y79.280 E0.02365
G1 X144.608 Y76.657 E0.08224
G1 X145.362 Y76.657 E0.02365
G1 X145.362 Y79.280 E0.08224
G1 X146.116 Y79.280 E0.02365
G1 X146.116 Y76.657 E0.08224
G1 X146.871 Y76.657 E0.02365
G1 X146.871 Y79.280 E0.08224
G1 X147.625 Y79.280 E0.02365
G1 X147.625 Y76.657 E0.08224
G1 X148.379 Y76.657 E0.02365
G1 X148.379 Y79.280 E0.08224
G1 X149.133 Y79.280 E0.02365
G1 X149.133 Y76.657 E0.08224
G1 X149.887 Y76.657 E0.02365
G1 X149.887 Y79.280 E0.08224
G1 X150.641 Y79.280 E0.02365
G1 X150.641 Y76.657 E0.08224
G1 X151.396 Y76.657 E0.02365
G1 X151.396 Y79.280 E0.08224
G1 X152.150 Y79.280 E0.02365
G1 X152.150 Y76.657 E0.08224
G1 X152.904 Y76.657 E0.02365
G1 X152.904 Y79.280 E0.08224
G1 X153.658 Y79.280 E0.02365
G1 X153.658 Y76.657 E0.08224
G1 X154.412 Y76.657 E0.02365
G1 X154.412 Y79.280 E0.08224
G1 X155.166 Y79.280 E0.02365
G1 X155.166 Y76.657 E0.08224
G1 X155.921 Y76.657 E0.02365
G1 X155.921 Y79.280 E0.08224
G1 X156.675 Y79.280 E0.02365
G1 X156.675 Y76.657 E0.08224
G1 X157.429 Y76.657 E0.02365
G1 X157.429 Y79.280 E0.08224
G1 X158.183 Y79.280 E0.02365
G1 X158.183 Y76.657 E0.08224
G1 X158.937 Y76.657 E0.02365
G1 X158.937 Y79.280 E0.08224
G1 X159.691 Y79.280 E0.02365
G1 X159.691 Y76.657 E0.08224
G1 X160.445 Y76.657 E0.02365
G1 X160.445 Y79.280 E0.08224
G1 X161.200 Y79.280 E0.02365
G1 X161.200 Y76.657 E0.08224
G1 X161.954 Y76.657 E0.02365
G1 X161.954 Y79.280 E0.08224
G1 X162.708 Y79.280 E0.02365
G1 X162.708 Y76.657 E0.08224
G1 X163.462 Y76.657 E0.02365
G1 X163.462 Y79.280 E0.08224
G1 X164.216 Y79.280 E0.02365
G1 X164.216 Y76.657 E0.08224
G1 X164.970 Y76.657 E0.02365
G1 X164.970 Y87.201 E0.33060
G1 X165.725 Y87.201 E0.02365
G1 X165.725 Y76.657 E0.33060
G1 X166.479 Y76.657 E0.02365
G1 X166.479 Y87.371 E0.33592
G1 X164.216 Y87.371 F10800.000
G1 F1200.000
G1 X164.216 Y84.409 E0.09288
G1 X164.045 Y84.374 F10800.000
G1 F1200.000
G1 X164.045 Y79.622 E0.12135
G1 X163.538 Y79.622 E0.01295
G1 X163.538 Y81.500 E0.04795
G1 X163.513 Y81.474 E0.00092
G1 X163.031 Y81.474 E0.01230
G1 X163.031 Y79.622 E0.04730
G1 X162.524 Y79.622 E0.01295
G1 X162.524 Y81.474 E0.04730
G1 X162.017 Y81.474 E0.01295
G1 X162.017 Y79.622 E0.04730
G1 X161.510 Y79.622 E0.01295
G1 X161.510 Y81.474 E0.04730
G1 X161.003 Y81.474 E0.01295
G1 X161.003 Y79.622 E0.04730
G1 X160.496 Y79.622 E0.01295
G1 X160.496 Y81.474 E0.04730
G1 X159.988 Y81.474 E0.01295
G1 X159.988 Y79.622 E0.04730
G1 X159.481 Y79.622 E0.01295
G1 X159.481 Y81.474 E0.04730
G1 X158.974 Y81.474 E0.01295
G1 X158.974 Y79.622 E0.04730
G1 X158.467 Y79.622 E0.01295
G1 X158.467 Y81.474 E0.04730
G1 X157.960 Y81.474 E0.01295
G1 X157.960 Y79.622 E0.04730
G1 X157.453 Y79.622 E0.01295
G1 X157.453 Y81.474 E0.04730
G1 X156.946 Y81.474 E0.01295
G1 X156.946 Y79.622 E0.04730
G1 X156.439 Y79.622 E0.01295
G1 X156.439 Y81.474 E0.04730
G1 X155.932 Y81.474 E0.01295
G1 X155.932 Y79.622 E0.04730
G1 X155.425 Y79.622 E0.01295
G1 X155.425 Y81.474 E0.04730
G1 X154.918 Y81.474 E0.01295
G1 X154.918 Y79.622 E0.04730
G1 X154.411 Y79.622 E0.01295
G1 X154.411 Y81.474 E0.04730
G1 X153.904 Y81.474 E0.01295
G1 X153.904 Y79.622 E0.04730
G1 X153.396 Y79.622 E0.01295
G1 X153.396 Y81.474 E0.04730
G1 X152.889 Y81.474 E0.01295
G1 X152.889 Y79.622 E0.04730
G1 X152.382 Y79.622 E0.01295
G1 X152.382 Y81.474 E0.04730
G1 X151.875 Y81.474 E0.01295
G1 X151.875 Y79.622 E0.04730
G1 X151.368 Y79.622 E0.01295
G1 X151.368 Y81.474 E0.04730
G1 X150.861 Y81.474 E0.01295
G1 X150.861 Y79.622 E0.04730
G1 X150.354 Y79.622 E0.01295
G1 X150.354 Y81.474 E0.04730
G1 X149.847 Y81.474 E0.01295
G1 X149.847 Y79.622 E0.04730
G1 X149.340 Y79.622 E0.01295
G1 X149.340 Y81.474 E0.04730
G1 X148.833 Y81.474 E0.01295
G1 X148.833 Y79.622 E0.04730
G1 X148.326 Y79.622 E0.01295
G1 X148.326 Y81.474 E0.04730
G1 X147.819 Y81.474 E0.01295
G1 X147.819 Y79.622 E0.04730
G1 X147.311 Y79.622 E0.01295
G1 X147.311 Y81.474 E0.04730
G1 X146.804 Y81.474 E0.01295
G1 X146.804 Y79.622 E0.04730
G1 X146.297 Y79.622 E0.01295
G1 X146.297 Y81.474 E0.04730
G1 X145.790 Y81.474 E0.01295
G1 X145.790 Y79.622 E0.04730
G1 X145.283 Y79.622 E0.01295
G1 X145.283 Y81.474 E0.04730
G1 X144.776 Y81.474 E0.01295
G1 X144.776 Y79.622 E0.04730
G1 X144.269 Y79.622 E0.01295
G1 X144.269 Y81.474 E0.04730
G1 X143.762 Y81.474 E0.01295
G1 X143.762 Y79.622 E0.04730
G1 X143.255 Y79.622 E0.01295
G1 X143.255 Y81.474 E0.04730
G1 X142.748 Y81.474 E0.01295
G1 X142.748 Y79.622 E0.04730
G1 X142.241 Y79.622 E0.01295
G1 X142.241 Y81.474 E0.04730
G1 X141.734 Y81.474 E0.01295
G1 X141.734 Y79.622 E0.04730
G1 X141.227 Y79.622 E0.01295
G1 X141.227 Y81.474 E0.04730
G1 X140.719 Y81.474 E0.01295
G1 X140.719 Y79.622 E0.04730
G1 X140.212 Y79.622 E0.01295
G1 X140.212 Y81.474 E0.04730
G1 X139.705 Y81.474 E0.01295
G1 X139.705 Y79.622 E0.04730
G1 X139.198 Y79.622 E0.01295
G1 X139.198 Y81.474 E0.04730
G1 X138.691 Y81.474 E0.01295
G1 X138.691 Y79.622 E0.04730
G1 X138.184 Y79.622 E0.01295
G1 X138.184 Y81.474 E0.04730
G1 X137.677 Y81.474 E0.01295
G1 X137.677 Y79.622 E0.04730
G1 X137.170 Y79.622 E0.01295
G1 X137.170 Y81.474 E0.04730
G1 X136.663 Y81.474 E0.01295
G1 X136.663 Y79.622 E0.04730
G1 X136.156 Y79.622 E0.01295
G1 X136.156 Y81.474 E0.04730
G1 X135.649 Y81.474 E0.01295
G1 X135.649 Y79.622 E0.04730
G1 X135.142 Y79.622 E0.01295
G1 X135.142 Y81.474 E0.04730
G1 X134.635 Y81.474 E0.01295
G1 X134.635 Y79.622 E0.04730
G1 X134.127 Y79.622 E0.01295
G1 X134.127 Y81.474 E0.04730
G1 X133.620 Y81.474 E0.01295
G1 X133.620 Y79.622 E0.04730
G1 X133.113 Y79.622 E0.01295
G1 X133.113 Y81.474 E0.04730
G1 X132.606 Y81.474 E0.01295
G1 X132.606 Y79.622 E0.04730
G1 X132.099 Y79.622 E0.01295
G1 X132.099 Y81.474 E0.04730
G1 X131.592 Y81.474 E0.01295
G1 X131.592 Y79.622 E0.04730
G1 X131.085 Y79.622 E0.01295
G1 X131.085 Y81.474 E0.04730
G1 X130.578 Y81.474 E0.01295
G1 X130.578 Y79.622 E0.04730
G1 X130.071 Y79.622 E0.01295
G1 X130.071 Y81.474 E0.04730
G1 X129.564 Y81.474 E0.01295
G1 X129.564 Y79.622 E0.04730
G1 X129.057 Y79.622 E0.01295
G1 X129.057 Y81.474 E0.04730
G1 X128.550 Y81.474 E0.01295
G1 X128.550 Y79.622 E0.04730
G1 X128.042 Y79.622 E0.01295
G1 X128.042 Y81.474 E0.04730
G1 X127.535 Y81.474 E0.01295
G1 X127.535 Y79.622 E0.04730
G1 X127.028 Y79.622 E0.01295
G1 X127.028 Y81.474 E0.04730
G1 X126.521 Y81.474 E0.01295
G1 X126.521 Y79.622 E0.04730
G1 X126.014 Y79.622 E0.01295
G1 X126.014 Y81.474 E0.04730
G1 X125.507 Y81.474 E0.01295
G1 X125.507 Y79.622 E0.04730
G1 X125.000 Y79.622 E0.01295
G1 X125.000 Y81.474 E0.04730
G1 X124.493 Y81.474 E0.01295
G1 X124.493 Y79.622 E0.04730
G1 X123.986 Y79.622 E0.01295
G1 X123.986 Y81.474 E0.04730
G1 X123.479 Y81.474 E0.01295
G1 X123.479 Y79.622 E0.04730
G1 X122.972 Y79.622 E0.01295
G1 X122.972 Y81.474 E0.04730
G1 X122.465 Y81.474 E0.01295
G1 X122.465 Y79.622 E0.04730
G1 X121.958 Y79.622 E0.01295
G1 X121.958 Y81.474 E0.04730
G1 X121.450 Y81.474 E0.01295
G1 X121.450 Y79.622 E0.04730
G1 X120.943 Y79.622 E0.01295
G1 X120.943 Y81.474 E0.04730
G1 X120.436 Y81.474 E0.01295
G1 X120.436 Y79.622 E0.04730
G1 X119.929 Y79.622 E0.01295
G1 X119.929 Y81.474 E0.04730
G1 X119.422 Y81.474 E0.01295
G1 X119.422 Y79.622 E0.04730
G1 X118.915 Y79.622 E0.01295
G1 X118.915 Y81.474 E0.04730
G1 X118.408 Y81.474 E0.01295
G1 X118.408 Y79.622 E0.04730
G1 X117.901 Y79.622 E0.01295
G1 X117.901 Y81.474 E0.04730
G1 X117.394 Y81.474 E0.01295
G1 X117.394 Y79.622 E0.04730
G1 X116.887 Y79.622 E0.01295
G1 X116.887 Y81.474 E0.04730
G1 X116.380 Y81.474 E0.01295
G1 X116.380 Y79.622 E0.04730
G1 X115.873 Y79.622 E0.01295
G1 X115.873 Y81.474 E0.04730
G1 X115.366 Y81.474 E0.01295
G1 X115.366 Y79.622 E0.04730
G1 X114.858 Y79.622 E0.01295
G1 X114.858 Y81.474 E0.04730
G1 X114.351 Y81.474 E0.01295
G1 X114.351 Y79.622 E0.04730
G1 X113.844 Y79.622 E0.01295
G1 X113.844 Y81.474 E0.04730
G1 X113.337 Y81.474 E0.01295
G1 X113.337 Y79.622 E0.04730
G1 X112.830 Y79.622 E0.01295
G1 X112.830 Y81.474 E0.04730
G1 X112.323 Y81.474 E0.01295
G1 X112.323 Y79.622 E0.04730
G1 X111.816 Y79.622 E0.01295
G1 X111.816 Y81.474 E0.04730
G1 X111.309 Y81.474 E0.01295
G1 X111.309 Y79.622 E0.04730
G1 X110.802 Y79.622 E0.01295
G1 X110.802 Y81.474 E0.04730
G1 X110.295 Y81.474 E0.01295
G1 X110.295 Y79.622 E0.04730
G1 X109.788 Y79.622 E0.01295
G1 X109.788 Y81.474 E0.04730
G1 X109.281 Y81.474 E0.01295
G1 X109.281 Y79.622 E0.04730
G1 X108.773 Y79.622 E0.01295
G1 X108.773 Y81.474 E0.04730
G1 X108.266 Y81.474 E0.01295
G1 X108.266 Y79.622 E0.04730
G1 X107.759 Y79.622 E0.01295
G1 X107.759 Y81.474 E0.04730
G1 X107.252 Y81.474 E0.01295
G1 X107.252 Y79.622 E0.04730
G1 X106.745 Y79.622 E0.01295
G1 X106.745 Y81.474 E0.04730
G1 X106.238 Y81.474 E0.01295
G1 X106.238 Y79.622 E0.04730
G1 X105.731 Y79.622 E0.01295
G1 X105.731 Y81.474 E0.04730
G1 X105.224 Y81.474 E0.01295
G1 X105.224 Y79.622 E0.04730
G1 X104.717 Y79.622 E0.01295
